;TIME:1306.58
;Filament used:2.11459m
;Layer height:0.200
; HEADER_BLOCK_START
; generated by Creality_Print V6.3.0.3420 on 2026-03-04 at 10:19:35
; total layer number: 61
; filament_density: 1.24
; filament_diameter: 1.75
; max_z_height: 12.20
; creality_uuid: 8d7d8a8d-b851-4d4e-8fc3-8c5b6eaef5fe
; HEADER_BLOCK_END

; MINX = 81.20
; MINY = 80.69
; MINZ = 0.00
; MAXX = 138.80
; MAXY = 139.31
; MAXZ = 12.15

; multicolor_method = 0 
; THUMBNAIL_BLOCK_START

;
; THUMBNAIL_BLOCK_END

; THUMBNAIL_BLOCK_START

;
; THUMBNAIL_BLOCK_END

; external perimeters extrusion width = 0.42mm
; perimeters extrusion width = 0.45mm
; infill extrusion width = 0.45mm
; solid infill extrusion width = 0.42mm
; top infill extrusion width = 0.42mm
; support material extrusion width = 0.40mm
; first layer extrusion width = 0.50mm

; EXECUTABLE_BLOCK_START
M73 P0 R21
M201 X5000 Y5000 Z500 E5000
M203 X500 Y500 Z30 E100
M204 P5000 R2500 T5000 ; sets acceleration (P, T) and retract acceleration (R), mm/sec^2
M205 X10.00 Y10.00 Z0.40 E5.00 ; sets the jerk limits, mm/sec
; max_print_temp = 50,190
;TYPE:Custom
M220 S100 ;Reset Feedrate 
M221 S100 ;Reset Flowrate 
 
M140 S50 ;Set final bed temp 
G28 ;Home 
 
G92 E0 ;Reset Extruder 
G1 Z2.0 F3000 ;Move Z Axis up 
M104 S190 ;Set final nozzle temp 
G1 X-2.1 Y20 Z0.28 F5000.0 ;Move to start position 
M190 S50 ;Wait for bed temp to stabilize 
M109 S190 ;Wait for nozzle temp to stabilize 
G1 X-2.1 Y145.0 Z0.28 F1500.0 E15 ;Draw the first line 
G1 X-2.4 Y145.0 Z0.28 F5000.0 ;Move to side a little 
G1 X-2.4 Y20 Z0.28 F1500.0 E30 ;Draw the second line 
G92 E0  ;Reset Extruder 
G1 E-1.0000 F1800 ;Retract a bit 
G1 Z2.0 F3000 ;Move Z Axis up 
G1 E0.0000 F1800
G90
G21
M83 ; use relative distances for extrusion
;filament start gcode
G1 E-1.2 F2400
G1 Z.2 F9000
M106 S0
;LAYER_CHANGE
;Z:0.2
;HEIGHT:0.2
;BEFORE_LAYER_CHANGE
;0.2
G92 E0

;_SET_FAN_SPEED_CHANGING_LAYER
M204 P500
M205 X10 Y10
; printing object SM3_Sensor_UltraSonicPlate.stl id:18446744073634029279 copy 0
M204 T500
G1 X119.249 Y114.074 Z.4 F9000
G1 Z.2
G1 E1.2 F1800
;TYPE:Support interface
;WIDTH:0.4
G1 X118.571 Y114.06 E.01913
G1 X118.571 Y112.857 E.03394
G1 X119.428 Y112.857 E.02416
G1 X119.428 Y114.077 E.03442
G1 X120.285 Y114.094 E.02418
G1 X120.285 Y112.857 E.0349
G1 X121.142 Y112.857 E.02418
G1 X121.142 Y114.111 E.03538
G1 X121.999 Y114.128 E.02418
G1 X121.999 Y112.857 E.03586
G1 X122.856 Y112.857 E.02418
G1 X122.856 Y114.138 E.03613
G1 X123.713 Y114.145 E.02418
G1 X123.713 Y112.857 E.03633
G1 X124.57 Y112.857 E.02418
G1 X124.57 Y114.152 E.03653
G1 X125.427 Y114.163 E.02418
G1 X125.427 Y112.857 E.03685
G1 X126.285 Y112.857 E.02418
G1 X126.285 Y114.196 E.03777
G1 X127.142 Y114.228 E.02419
G1 X127.142 Y112.857 E.03868
G1 X127.999 Y112.857 E.02418
G1 X127.999 Y114.229 E.0387
G3 X128.856 Y114.474 I-.543 J3.525 E.02521
G1 X128.856 Y112.857 E.0456
G1 X129.713 Y112.857 E.02418
G1 X129.713 Y115.065 E.06228
G2 X130.57 Y115.812 I5.836 J-5.828 E.0321
G1 X130.57 Y112.857 E.08336
G1 X131.248 Y112.857 E.01914
G1 E-1.2 F2400
;WIPE_START
G1 F1800
G1 X130.57 Y112.857
G1 X130.57 Y114.179
;WIPE_END
G1 X131.427 Y117.12 Z.4 F9000
G1 Z.2
G1 E1.2 F1800
G1 X131.427 Y112.857 E.12026
G1 X132.284 Y112.857 E.02418
M73 P1 R21
G1 X132.284 Y119.835 E.19683
G1 X132.881 Y121.917 E.06108
G1 E-1.2 F2400
;WIPE_START
G1 F1800
G1 X132.33 Y119.994
;WIPE_END
G1 X133.348 Y123.543 Z.4 F9000
G1 Z.2
G1 E1.2 F1800
G3 X133.141 Y121.428 I3.583 J-1.417 E.06072
G1 X133.998 Y121.428 E.02418
G1 X133.998 Y125.874 E.1254
G2 X134.57 Y127.867 I51.472 J-13.681 E.05848
G1 E-1.2 F2400
;WIPE_START
G1 F1800
G1 X134.018 Y125.944
;WIPE_END
G1 X134.855 Y128.85 Z.4 F9000
G1 Z.2
G1 E1.2 F1800
G1 X134.855 Y121.428 E.20934
G1 X135.712 Y121.428 E.02418
G3 X135.712 Y133.861 I-200.138 J6.216 E.35073
G1 X135.712 Y138.571 E.13286
G1 X134.855 Y138.571 E.02418
G1 X134.855 Y135.47 E.08745
G3 X133.998 Y136.221 I-3.019 J-2.583 E.03224
G1 X133.998 Y138.571 E.06629
G1 X133.141 Y138.571 E.02418
G1 X133.141 Y136.555 E.05687
G1 X132.284 Y136.791 E.02508
G1 X132.284 Y138.571 E.0502
G1 X131.427 Y138.571 E.02418
G1 X131.427 Y136.841 E.04878
G1 X130.57 Y136.841 E.02418
G1 X130.57 Y138.571 E.04878
G1 X129.713 Y138.571 E.02418
G1 X129.713 Y136.841 E.04879
G1 X128.856 Y136.841 E.02418
G1 X128.856 Y138.571 E.04879
G1 X127.999 Y138.571 E.02418
G1 X127.999 Y136.841 E.04879
G1 X127.142 Y136.841 E.02418
G1 X127.142 Y138.571 E.0488
G1 X126.285 Y138.571 E.02418
G1 X126.285 Y136.841 E.0488
G1 X125.427 Y136.841 E.02418
G1 X125.427 Y138.571 E.0488
G1 X124.57 Y138.571 E.02418
G1 X124.57 Y136.841 E.04878
G1 X123.713 Y136.844 E.02418
G1 X123.713 Y138.571 E.04871
G1 X122.856 Y138.571 E.02418
G1 X122.856 Y136.846 E.04864
G1 X121.999 Y136.849 E.02418
G1 X121.999 Y138.571 E.04857
G1 X121.142 Y138.571 E.02418
G1 X121.142 Y136.851 E.04851
G1 X120.285 Y136.854 E.02418
G1 X120.285 Y138.571 E.04844
G1 X119.428 Y138.571 E.02418
G1 X119.428 Y136.856 E.04837
G1 X118.571 Y136.859 E.02418
G1 X118.571 Y138.571 E.0483
G1 X117.714 Y138.571 E.02418
G1 X117.714 Y136.861 E.04823
G1 X116.857 Y136.863 E.02418
G1 X116.857 Y138.571 E.04816
G1 X116 Y138.571 E.02418
G1 X116 Y136.866 E.04809
G1 X115.143 Y136.868 E.02418
G1 X115.143 Y138.571 E.04802
G1 X114.285 Y138.571 E.02418
G1 X114.285 Y136.871 E.04795
G1 X113.428 Y136.873 E.02418
G1 X113.428 Y138.571 E.04788
G1 X112.571 Y138.571 E.02418
G1 X112.571 Y136.876 E.04782
G1 X111.714 Y136.878 E.02418
G1 X111.714 Y138.571 E.04775
G1 X110.857 Y138.571 E.02418
G1 X110.857 Y136.881 E.04768
G1 X110 Y136.883 E.02418
G1 X110 Y138.571 E.04761
G1 E-1.2 F2400
;WIPE_START
G1 F1800
G1 X110 Y136.883
G1 X110.312 Y136.882
;WIPE_END
G1 X114.124 Y136.709 Z.4 F9000
G1 X135.998 Y135.714 Z.4
G1 Z.2
G1 E1.2 F1800
G1 X136.569 Y135.714 E.01612
G1 X136.569 Y130 E.16118
G1 X137.427 Y130 E.02418
G1 X137.427 Y135.714 E.16118
G1 X138.284 Y135.714 E.02418
G1 X138.284 Y130 E.16118
G1 X138.571 Y130 E.0081
G1 X138.571 Y135.714 E.16118
G1 X138.462 Y135.714 E.00307
G1 E-1.2 F2400
;WIPE_START
G1 F9000
G1 X138.571 Y135.714
G1 X138.571 Y133.822
;WIPE_END
G1 X135.03 Y132.398 Z.4
G1 X93.622 Y115.735 Z.4
G1 Z.2
G1 E1.2 F1800
;TYPE:Inner wall
;WIDTH:0.499999
G1 X92.601 Y115.932 E.03752
G1 X91.687 Y116.258 E.03503
G1 X90.543 Y116.837 E.04628
G1 X89.124 Y117.876 E.06352
G1 X88.144 Y118.944 E.05234
G1 X87.788 Y119.395 E.02077
G1 X87.197 Y120.3 E.03903
G1 X86.657 Y121.524 E.04829
G1 X86.284 Y122.799 E.04797
G1 X86.124 Y124.171 E.04986
G1 X86.137 Y125.452 E.04626
G1 X86.367 Y126.758 E.04789
G2 X86.786 Y128.073 I81.062 J-25.104 E.04983
G2 X87.636 Y129.662 I8.278 J-3.407 E.0652
G1 X88.418 Y130.66 E.04577
G1 X89.223 Y131.448 E.04066
G2 X91.017 Y132.664 I5.685 J-6.46 E.07848
G1 X92.465 Y133.274 E.05671
G1 X94.205 Y133.633 E.06414
G1 X95.963 Y133.646 E.06349
G1 X96.937 Y133.502 E.03554
G1 X98.563 Y133.018 E.06127
G1 X99.429 Y132.607 E.03461
G1 X100.473 Y131.944 E.04466
G2 X101.814 Y130.756 I-31.861 J-37.328 E.06469
G2 X102.695 Y129.642 I-30.895 J-25.325 E.05125
G2 X103.539 Y128.04 I-25.292 J-14.355 E.0654
G1 X103.734 Y127.263 E.02894
G1 X103.802 Y127.422 E.00625
G1 X104.219 Y128.158 E.03055
G3 X105.665 Y130.033 I-13.181 J11.658 E.08555
G1 X106.163 Y130.582 E.02678
G1 X106.448 Y131.054 E.01991
G1 X106.959 Y131.709 E.03
G1 X107.275 Y131.975 E.01491
G2 X107.778 Y132.787 I9.248 J-5.171 E.03451
G1 X108.222 Y133.213 E.02221
G1 X108.669 Y133.82 E.0272
G1 X108.662 Y133.989 E.00612
G1 X108.963 Y134.457 E.02008
G3 X109.129 Y134.615 I-.208 J.385 E.00835
G1 X109.333 Y135.028 E.01668
G1 X105.343 Y135.11 E.1441
G2 X102.298 Y135.235 I.233 J42.672 E.11007
G1 X90.231 Y135.291 E.43567
G1 X90.168 Y135.253 E.00268
G1 X89.592 Y135.271 E.02078
G1 X89.098 Y135.136 E.01851
G3 X87.803 Y134.428 I3.786 J-8.462 E.05335
G3 X86.977 Y133.382 I6.916 J-6.306 E.04818
G1 X86.831 Y132.951 E.01642
G1 X86.643 Y132.636 E.01324
G1 X86.595 Y132.425 E.00783
G2 X85.183 Y126.844 I-474.54 J117.079 E.20783
G1 X84.279 Y123.881 E.11185
G1 X82.934 Y118.587 E.19724
G1 X82.804 Y118.152 E.01639
G1 X82.805 Y117.434 E.02593
G3 X83.002 Y116.702 I8.829 J1.992 E.02737
G2 X83.77 Y115.756 I-8.842 J-7.96 E.04401
G1 X84.229 Y115.573 E.01783
G1 X84.612 Y115.318 E.01661
G1 X85.467 Y115.178 E.03128
G3 X86.587 Y115.321 I-.792 J10.603 E.04082
G1 X93.826 Y115.44 E.26137
;WIDTH:0.541393
G1 X93.932 Y115.464 E.00431
;WIDTH:0.582786
G1 X94.039 Y115.487 E.00467
;WIDTH:0.624179
G1 X94.146 Y115.51 E.00502
;WIDTH:0.665572
G1 X94.253 Y115.534 E.00538
G1 X94.152 Y115.573 E.00536
;WIDTH:0.624179
G1 X94.05 Y115.613 E.005
;WIDTH:0.582786
G1 X93.949 Y115.652 E.00464
;WIDTH:0.541393
G1 X93.847 Y115.692 E.00429
;WIDTH:0.499999
G1 X93.661 Y115.728 E.00686
G1 E-1.2 F2400
;WIPE_START
G1 F9000
G1 X92.601 Y115.932
G1 X91.734 Y116.242
;WIPE_END
G1 X95.55 Y116.234 Z.4
G1 X95.96 Y116.233 Z.4
G1 Z.2
G1 E1.2 F1800
;TYPE:Outer wall
G3 X94.85 Y116.094 I.455 J-8.158 E.04042
G1 X94.398 Y116.066 E.01633
G2 X92.722 Y116.374 I4.186 J27.523 E.06154
G1 X91.893 Y116.666 E.03173
G1 X90.783 Y117.228 E.04492
G1 X89.43 Y118.218 E.06054
G1 X88.48 Y119.253 E.05072
G1 X88.171 Y119.646 E.01807
G1 X87.6 Y120.519 E.03768
G1 X87.087 Y121.681 E.04585
G1 X86.734 Y122.89 E.04548
G1 X86.581 Y124.166 E.0464
G1 X86.593 Y125.41 E.0449
G1 X86.812 Y126.65 E.04546
G2 X87.2 Y127.88 I208.538 J-65.132 E.04658
G2 X87.996 Y129.38 I7.932 J-3.246 E.06143
G1 X88.759 Y130.355 E.04469
G2 X89.67 Y131.244 I153.713 J-156.5 E.04596
G2 X91.195 Y132.243 I5.933 J-7.393 E.06592
G1 X92.601 Y132.835 E.0551
G1 X94.253 Y133.176 E.06091
G1 X95.931 Y133.189 E.06058
G1 X96.807 Y133.064 E.03194
G1 X98.399 Y132.59 E.05998
G1 X99.184 Y132.222 E.03132
G1 X100.228 Y131.558 E.04466
G2 X101.482 Y130.44 I-77.555 J-88.257 E.06065
G2 X102.293 Y129.424 I-74.058 J-59.966 E.04694
G2 X103.096 Y127.929 I-59.772 J-33.058 E.06127
G1 X103.302 Y127.091 E.03117
G3 X103.486 Y126.033 I5.722 J.451 E.03885
G1 X103.888 Y126.444 E.02075
G1 X103.99 Y126.642 E.00804
G1 X104.2 Y127.198 E.02146
G1 X104.581 Y127.875 E.02806
G3 X106.003 Y129.726 I-12.989 J11.459 E.08434
M73 P2 R21
G1 X106.533 Y130.31 E.02848
G1 X106.808 Y130.773 E.01945
G1 X107.32 Y131.428 E.03
G1 X107.623 Y131.665 E.01393
G2 X108.095 Y132.458 I26.883 J-15.46 E.03328
G1 X108.567 Y132.91 E.02363
G1 X109.149 Y133.7 E.03543
G1 X109.114 Y133.919 E.00802
G1 X109.214 Y134.076 E.00669
G1 X109.448 Y134.23 E.01012
G1 X110.062 Y135.471 E.04999
G1 X105.352 Y135.567 E.17008
G2 X102.312 Y135.692 I.225 J42.337 E.1099
G1 X90.146 Y135.748 E.43926
G1 X90.109 Y135.707 E.002
G1 X89.713 Y135.749 E.01439
G1 X89.437 Y135.71 E.01006
G1 X88.929 Y135.563 E.01908
G1 X88.048 Y135.115 E.03567
G1 X87.51 Y134.785 E.02283
G1 X87.014 Y134.248 E.02637
G1 X86.924 Y134.078 E.00694
G1 X86.567 Y133.596 E.02166
G1 X86.398 Y133.097 E.01901
G1 X86.218 Y132.827 E.01175
G1 X86.152 Y132.537 E.01073
G2 X84.746 Y126.978 I-493.181 J121.757 E.20704
G1 X83.839 Y124.004 E.11224
G1 X82.491 Y118.699 E.19763
G1 X82.347 Y118.254 E.01692
G1 X82.348 Y117.379 E.03156
G3 X82.613 Y116.445 I7.447 J1.61 E.03509
G2 X83.529 Y115.36 I-16.662 J-14.997 E.0513
G1 X84.059 Y115.148 E.02059
G3 X84.49 Y114.875 I1.105 J1.265 E.01848
G3 X85.591 Y114.721 I1.992 J10.218 E.04017
G3 X86.595 Y114.864 I-.996 J10.558 E.03664
G1 X94.407 Y114.993 E.28209
G2 X94.841 Y115.039 I.473 J-2.368 E.0158
G3 X95.934 Y116.202 I-8.606 J9.185 E.05765
G1 E-1.2 F2400
;WIPE_START
G1 F9000
G1 X95.536 Y116.198
G1 X94.85 Y116.094
G1 X94.398 Y116.066
G1 X93.95 Y116.148
;WIPE_END
G1 X94.619 Y115.556 Z.4
G1 Z.2
G1 E1.2 F1800
;TYPE:Inner wall
;WIDTH:0.670448
G1 X94.265 Y115.533 E.0176
G1 E-1.2 F2400
;WIPE_START
G1 F9000
G1 X94.619 Y115.556
;WIPE_END
G1 X91.174 Y115.534 Z.4
G1 Z.4
G1 Z.2
G1 E1.2 F1800
;TYPE:Bottom surface
;WIDTH:0.50947
G1 F4800
G1 X91.578 Y115.938 E.02105
G1 X91.137 Y116.157 E.01813
G1 X90.712 Y115.732 E.02216
G1 X90.041 Y115.721 E.02473
G1 X90.697 Y116.377 E.03417
G2 X90.279 Y116.619 I.528 J1.392 E.01787
G1 X89.371 Y115.71 E.04736
G1 X88.7 Y115.699 E.02473
G1 X89.896 Y116.895 E.06235
G1 X89.513 Y117.172 E.01742
G1 X88.029 Y115.688 E.07734
G1 X87.358 Y115.677 E.02473
G1 X89.13 Y117.448 E.09233
G2 X88.773 Y117.752 I1.111 J1.67 E.01729
G1 X86.687 Y115.666 E.1087
G1 X86.574 Y115.664 E.00419
G1 X85.921 Y115.56 E.02435
G1 X88.457 Y118.096 E.13219
G1 X88.142 Y118.44 E.01721
G1 X85.261 Y115.559 E.15018
G1 X84.73 Y115.646 E.0198
G1 X84.706 Y115.664 E.00112
G1 X87.827 Y118.785 E.16265
G2 X87.539 Y119.157 I1.014 J1.082 E.01741
G1 X84.294 Y115.912 E.1691
G1 X83.985 Y116.039 E.01233
G1 X83.887 Y116.165 E.00586
G1 X87.277 Y119.554 E.17667
G1 X87.015 Y119.952 E.01756
G1 X83.599 Y116.536 E.17804
G3 X83.298 Y116.895 I-5.789 J-4.543 E.01726
G1 X86.792 Y120.39 E.18212
G1 X86.587 Y120.844 E.01838
G1 X83.162 Y117.419 E.17851
G1 X83.148 Y117.475 E.00214
G1 X83.147 Y118.064 E.02168
G1 X86.382 Y121.299 E.1686
G1 X86.224 Y121.801 E.01939
G1 X83.382 Y118.959 E.14813
G1 X83.607 Y119.843 E.03364
G1 X86.072 Y122.309 E.1285
G2 X85.945 Y122.841 I1.579 J.66 E.02025
G1 X83.832 Y120.728 E.11013
G1 X84.056 Y121.612 E.03364
G1 X85.869 Y123.425 E.09445
G1 X85.793 Y124.008 E.0217
G1 X84.281 Y122.497 E.07877
G1 X84.506 Y123.382 E.03364
G1 X85.79 Y124.666 E.06693
G1 X85.793 Y125.328 E.02442
G1 X84.766 Y124.301 E.05354
G1 X85.055 Y125.251 E.03658
G1 X85.912 Y126.108 E.04467
G1 X86.056 Y126.911 E.03009
G1 X85.345 Y126.2 E.03708
G3 X85.615 Y127.13 I-14.432 J4.7 E.03571
G1 X86.716 Y128.23 E.05735
G1 E-1.2 F2400
;WIPE_START
G1 F9000
G1 X85.615 Y127.13
G1 X85.491 Y126.704
;WIPE_END
G1 X89.297 Y126.984 Z.4
G1 X103.683 Y128.043 Z.4
G1 Z.2
G1 E1.2 F1800
G1 F4800
G3 X103.939 Y128.355 I-.452 J.631 E.01504
G3 X105.406 Y130.257 I-13.562 J11.979 E.08858
G1 X105.886 Y130.787 E.02635
G1 X106.071 Y131.09 E.01309
G1 X103.625 Y128.645 E.12744
G1 X103.393 Y129.073 E.01793
G1 X108.323 Y134.003 E.25693
G1 X108.321 Y134.055 E.00194
G1 X108.733 Y134.698 E.02814
G1 X108.366 Y134.705 E.01354
G1 X103.161 Y129.501 E.27126
G3 X102.921 Y129.92 I-2.447 J-1.127 E.01784
G1 X107.719 Y134.718 E.2501
G1 X107.073 Y134.732 E.02384
G1 X102.629 Y130.288 E.23158
G1 X102.335 Y130.654 E.0173
G1 X106.426 Y134.745 E.21319
G1 X105.779 Y134.758 E.02384
G1 X102.031 Y131.01 E.19534
G1 X101.685 Y131.323 E.01722
G1 X105.133 Y134.771 E.17969
G1 X104.486 Y134.784 E.02384
G1 X101.338 Y131.637 E.16405
G1 X100.992 Y131.95 E.01722
G1 X103.846 Y134.805 E.14878
G1 X103.222 Y134.84 E.02306
G1 X100.624 Y132.242 E.13541
G1 X100.224 Y132.501 E.01758
G1 X102.597 Y134.875 E.12372
G3 X101.956 Y134.894 I-.504 J-6.19 E.02364
G1 X99.823 Y132.761 E.11118
G3 X99.401 Y132.999 I-1.117 J-1.486 E.0179
G1 X101.3 Y134.897 E.09893
G1 X100.643 Y134.9 E.02421
G1 X98.955 Y133.212 E.08799
G3 X98.476 Y133.393 I-.84 J-1.493 E.01893
G1 X99.986 Y134.903 E.07869
G1 X99.329 Y134.906 E.02421
G1 X97.97 Y133.547 E.07084
G1 X97.464 Y133.7 E.01949
G1 X98.673 Y134.909 E.06299
G1 X98.016 Y134.912 E.02421
G1 X96.948 Y133.844 E.05565
G1 X96.37 Y133.926 E.02152
G1 X97.359 Y134.915 E.05155
G1 X96.702 Y134.918 E.02421
G1 X95.772 Y133.987 E.04851
G1 X95.107 Y133.982 E.0245
G1 X96.045 Y134.921 E.04892
G1 X95.389 Y134.924 E.02421
G1 X94.442 Y133.978 E.04933
G3 X93.679 Y133.875 I-.025 J-2.694 E.02846
G1 X94.732 Y134.927 E.05486
G1 X94.075 Y134.93 E.02421
G1 X92.848 Y133.703 E.06396
G3 X91.884 Y133.399 I.442 J-3.079 E.03743
G1 X93.418 Y134.933 E.07998
G1 X92.762 Y134.936 E.02421
G1 X90.731 Y132.905 E.10585
G1 X90.657 Y132.874 E.00296
G3 X89.184 Y131.879 I4.465 J-8.202 E.0656
G1 X88.205 Y130.932 E.0502
G1 X87.362 Y129.869 E.05001
G1 X86.86 Y129.035 E.03585
G1 X85.847 Y128.022 E.05281
G1 X86.066 Y128.901 E.03338
G1 X92.105 Y134.939 E.31472
G1 X91.448 Y134.942 E.02421
G1 X86.285 Y129.78 E.26908
G1 X86.504 Y130.658 E.03338
G1 X90.791 Y134.945 E.22343
G1 X90.325 Y134.947 E.01719
G1 X90.307 Y134.927 E.00099
G1 X90.09 Y134.903 E.00805
G1 X86.723 Y131.537 E.17545
G1 X86.942 Y132.416 E.03338
G1 X89.391 Y134.864 E.1276
G1 X89.224 Y134.816 E.00639
G3 X88.036 Y134.169 I3.457 J-7.764 E.04992
G1 X87.057 Y133.19 E.05101
G1 E-1.2 F2400
;WIPE_START
G1 F9000
G1 X88.036 Y134.169
G1 X88.44 Y134.417
G1 X88.566 Y134.481
;WIPE_END
G1 X87.103 Y130.957 Z.4
G1 X85.787 Y127.788 Z.4
G1 Z.2
G1 E1.2 F1800
