;TIME:8728.89
;Filament used:14.25614m
;Layer height:0.200
; HEADER_BLOCK_START
; generated by Creality_Print V6.3.0.3420 on 2026-03-04 at 10:23:30
; total layer number: 281
; filament_density: 1.24
; filament_diameter: 1.75
; max_z_height: 44.40
; creality_uuid: 8722da6a-231d-4b79-87b7-87fc4e90fcff
; HEADER_BLOCK_END

; MINX = 53.00
; MINY = 36.97
; MINZ = 0.00
; MAXX = 167.00
; MAXY = 183.03
; MAXZ = 44.40

; multicolor_method = 0 
; THUMBNAIL_BLOCK_START

;
; THUMBNAIL_BLOCK_END

; THUMBNAIL_BLOCK_START

;
; THUMBNAIL_BLOCK_END

; external perimeters extrusion width = 0.42mm
; perimeters extrusion width = 0.45mm
; infill extrusion width = 0.45mm
; solid infill extrusion width = 0.42mm
; top infill extrusion width = 0.42mm
; support material extrusion width = 0.40mm
; first layer extrusion width = 0.50mm

; EXECUTABLE_BLOCK_START
M73 P0 R145
M201 X5000 Y5000 Z500 E5000
M203 X500 Y500 Z30 E100
M204 P5000 R2500 T5000 ; sets acceleration (P, T) and retract acceleration (R), mm/sec^2
M205 X10.00 Y10.00 Z0.40 E5.00 ; sets the jerk limits, mm/sec
; max_print_temp = 50,190
;TYPE:Custom
M220 S100 ;Reset Feedrate 
M221 S100 ;Reset Flowrate 
 
M140 S50 ;Set final bed temp 
G28 ;Home 
 
G92 E0 ;Reset Extruder 
G1 Z2.0 F3000 ;Move Z Axis up 
M104 S190 ;Set final nozzle temp 
G1 X-2.1 Y20 Z0.28 F5000.0 ;Move to start position 
M190 S50 ;Wait for bed temp to stabilize 
M109 S190 ;Wait for nozzle temp to stabilize 
G1 X-2.1 Y145.0 Z0.28 F1500.0 E15 ;Draw the first line 
G1 X-2.4 Y145.0 Z0.28 F5000.0 ;Move to side a little 
G1 X-2.4 Y20 Z0.28 F1500.0 E30 ;Draw the second line 
G92 E0  ;Reset Extruder 
G1 E-1.0000 F1800 ;Retract a bit 
G1 Z2.0 F3000 ;Move Z Axis up 
G1 E0.0000 F1800
G90
G21
M83 ; use relative distances for extrusion
;filament start gcode
G1 E-1.2 F2400
G1 Z.2 F9000
M106 S0
;LAYER_CHANGE
;Z:0.2
;HEIGHT:0.2
;BEFORE_LAYER_CHANGE
;0.2
G92 E0

;_SET_FAN_SPEED_CHANGING_LAYER
M204 P500
M205 X10 Y10
; printing object SM3_Cover_BottomRear.stl id:0 copy 0
M204 T500
G1 X60.501 Y36.645 Z.4 F9000
G1 Z.2
M73 P1 R142
G1 E1.2 F1800
;TYPE:Support
;WIDTH:0.5
G1 X63.358 Y36.645 E.10316
G1 X63.358 Y102.357 E2.37263
G1 X94.786 Y102.357 E1.13474
M73 P2 R142
G1 X94.786 Y110.929 E.30947
G1 X97.643 Y110.929 E.10316
G1 X97.643 Y113.786 E.10316
G1 X100.5 Y113.786 E.10316
G1 X100.5 Y116.643 E.10316
G1 X103.357 Y116.643 E.10316
G1 X103.357 Y119.5 E.10316
G1 X116.643 Y119.5 E.47969
G1 X116.643 Y116.643 E.10316
G1 X119.5 Y116.643 E.10316
G1 X119.5 Y113.786 E.10316
G1 X122.357 Y113.786 E.10316
G1 X122.357 Y110.929 E.10316
G1 X125.214 Y110.929 E.10316
G1 X125.214 Y102.357 E.30947
G1 X156.642 Y102.357 E1.13474
G1 X156.642 Y36.645 E2.37263
G1 X159.499 Y36.645 E.10316
G1 X159.499 Y33.788 E.10316
G1 X166.213 Y33.788 E.24241
G1 X166.213 Y36.645 E.10316
G1 X169.07 Y36.645 E.10316
G1 X169.07 Y57.644 E.7582
G1 X166.213 Y57.644 E.10316
G1 X166.213 Y120.5 E2.26947
G1 X163.356 Y120.5 E.10316
G1 X163.356 Y129.071 E.30947
G1 X160.499 Y129.071 E.10316
G1 X160.499 Y131.928 E.10316
G1 X157.642 Y131.928 E.10316
G1 X157.642 Y160.499 E1.03158
G1 X154.785 Y160.499 E.10316
G1 X154.785 Y163.356 E.10316
G1 X134.785 Y163.356 E.7221
G1 X134.785 Y166.213 E.10316
G1 X129.071 Y166.213 E.20632
G1 X129.071 Y169.07 E.10316
G1 X121.406 Y169.07 E.27677
G3 X122.153 Y167.57 I8.679 J3.39 E.06059
G1 X127.571 Y167.57 E.19562
G1 X127.571 Y164.713 E.10316
G1 X130.428 Y164.713 E.10316
G1 X130.428 Y160.999 E.13411
G1 X89.572 Y160.999 E1.47516
G1 X89.572 Y164.713 E.13411
G1 X92.429 Y164.713 E.10316
G1 X92.429 Y167.57 E.10316
G1 X97.971 Y167.57 E.20011
G3 X98.63 Y169.07 I-16.004 J7.926 E.05917
G1 X90.929 Y169.07 E.27805
G1 X90.929 Y166.213 E.10316
G1 X85.215 Y166.213 E.20632
G1 X85.215 Y163.356 E.10316
G1 X65.215 Y163.356 E.7221
G1 X65.215 Y160.499 E.10316
G1 X62.358 Y160.499 E.10316
G1 X62.358 Y134.785 E.92842
G1 X59.501 Y134.785 E.10316
G1 X59.501 Y129.071 E.20632
G1 X56.644 Y129.071 E.10316
G1 X56.644 Y123.357 E.20632
G1 X53.787 Y123.357 E.10316
G1 X53.787 Y114.786 E.30947
G1 X50.93 Y114.786 E.10316
G1 X50.93 Y62.358 E1.89294
G1 X53.787 Y62.358 E.10316
G1 X53.787 Y60.501 E.06706
G1 X50.93 Y60.501 E.10316
G1 X50.93 Y33.788 E.96452
G1 X60.501 Y33.788 E.34557
G1 X60.501 Y36.576 E.10068
G1 E-1.2 F2400
;WIPE_START
G1 F1800
G1 X60.501 Y34.576
;WIPE_END
G1 X64.234 Y35.367 Z.4 F9000
G1 X168.405 Y57.438 Z.4
M73 P2 R141
G1 Z.2
M73 P5 R137
G1 E1.2 F1800
G1 X168.405 Y37.056 E.73592
G1 X167.897 Y37.056 E.01834
G1 X167.897 Y57.233 E.7285
G1 X167.389 Y57.233 E.01834
G1 X167.389 Y37.056 E.7285
G1 X166.881 Y37.056 E.01834
G1 X166.881 Y57.233 E.7285
G1 X166.373 Y57.233 E.01834
G1 X166.373 Y37.056 E.7285
G1 X165.865 Y37.056 E.01834
G1 X165.802 Y120.088 E2.99797
G1 X165.357 Y120.088 E.01604
G1 X165.357 Y34.199 E3.10113
G1 X164.85 Y34.199 E.01834
G1 X164.85 Y120.088 E3.10113
G1 X164.342 Y120.088 E.01834
G1 X164.342 Y34.199 E3.10113
G1 X163.834 Y34.199 E.01834
G1 X163.834 Y120.088 E3.10113
G1 X163.326 Y120.088 E.01834
G1 X163.326 Y34.199 E3.10113
G1 X162.818 Y34.199 E.01834
G1 X162.818 Y128.66 E3.4106
G1 X162.31 Y128.66 E.01834
G1 X162.31 Y34.199 E3.4106
G1 X161.802 Y34.199 E.01834
G1 X161.802 Y128.66 E3.4106
G1 X161.294 Y128.66 E.01834
G1 X161.294 Y34.199 E3.4106
G1 X160.787 Y34.199 E.01834
M73 P5 R136
G1 X160.787 Y128.66 E3.4106
G1 X160.279 Y128.66 E.01834
G1 X160.279 Y34.199 E3.4106
G1 X159.91 Y34.199 E.0133
G1 X159.91 Y37.056 E.10316
G1 X159.771 Y37.056 E.00504
G1 X159.771 Y131.517 E3.4106
G1 X159.263 Y131.517 E.01834
G1 X159.263 Y37.056 E3.4106
G1 X158.755 Y37.056 E.01834
G1 X158.755 Y131.517 E3.4106
G1 X158.247 Y131.517 E.01834
M73 P6 R136
G1 X158.247 Y37.056 E3.4106
G1 X157.739 Y37.056 E.01834
G1 X157.739 Y131.517 E3.4106
G1 X157.232 Y131.517 E.01834
G1 X157.232 Y37.056 E3.4106
G1 X157.053 Y37.056 E.00644
G1 X157.053 Y102.769 E2.37263
G1 X156.724 Y102.769 E.0119
G1 X156.724 Y160.087 E2.06955
G1 X156.216 Y160.087 E.01834
G1 X156.216 Y102.769 E2.06955
G1 X155.708 Y102.769 E.01834
G1 X155.708 Y160.087 E2.06955
G1 X155.2 Y160.087 E.01834
G1 X155.2 Y102.769 E2.06955
G1 X154.692 Y102.769 E.01834
G1 X154.692 Y160.087 E2.06955
G1 X154.373 Y160.087 E.01152
G1 X154.373 Y162.945 E.10316
G1 X154.184 Y162.945 E.00682
G1 X154.184 Y102.769 E2.17271
G1 X153.676 Y102.769 E.01834
G1 X153.676 Y162.945 E2.17271
G1 X153.169 Y162.945 E.01834
G1 X153.169 Y102.769 E2.17271
G1 X152.661 Y102.769 E.01834
G1 X152.661 Y162.945 E2.17271
G1 X152.153 Y162.945 E.01834
G1 X152.153 Y102.769 E2.17271
G1 X151.645 Y102.769 E.01834
G1 X151.645 Y162.945 E2.17271
G1 X151.137 Y162.945 E.01834
G1 X151.137 Y102.769 E2.17271
G1 X150.629 Y102.769 E.01834
G1 X150.629 Y162.945 E2.17271
G1 X150.121 Y162.945 E.01834
G1 X150.121 Y102.769 E2.17271
G1 X149.614 Y102.769 E.01834
G1 X149.614 Y162.945 E2.17271
G1 X149.106 Y162.945 E.01834
G1 X149.106 Y102.769 E2.17271
G1 X148.598 Y102.769 E.01834
M73 P6 R135
G1 X148.598 Y162.945 E2.17271
G1 X148.09 Y162.945 E.01834
G1 X148.09 Y102.769 E2.17271
G1 X147.582 Y102.769 E.01834
G1 X147.582 Y162.945 E2.17271
G1 X147.074 Y162.945 E.01834
G1 X147.074 Y102.769 E2.17271
G1 X146.566 Y102.769 E.01834
G1 X146.566 Y162.945 E2.17271
G1 X146.058 Y162.945 E.01834
G1 X146.058 Y102.769 E2.17271
G1 X145.551 Y102.769 E.01834
G1 X145.551 Y162.945 E2.17271
G1 X145.043 Y162.945 E.01834
G1 X145.043 Y102.769 E2.17271
G1 X144.535 Y102.769 E.01834
G1 X144.535 Y162.945 E2.17271
G1 X144.027 Y162.945 E.01834
G1 X144.027 Y102.769 E2.17271
G1 X143.519 Y102.769 E.01834
G1 X143.519 Y162.945 E2.17271
G1 X143.011 Y162.945 E.01834
G1 X143.011 Y102.769 E2.17271
G1 X142.503 Y102.769 E.01834
G1 X142.503 Y162.945 E2.17271
G1 X141.996 Y162.945 E.01834
G1 X141.996 Y102.769 E2.17271
G1 X141.488 Y102.769 E.01834
G1 X141.488 Y162.945 E2.17271
G1 X140.98 Y162.945 E.01834
G1 X140.98 Y102.769 E2.17271
G1 X140.472 Y102.769 E.01834
G1 X140.472 Y162.945 E2.17271
G1 X139.964 Y162.945 E.01834
G1 X139.964 Y102.769 E2.17271
G1 X139.456 Y102.769 E.01834
G1 X139.456 Y162.945 E2.17271
G1 X138.948 Y162.945 E.01834
G1 X138.948 Y102.769 E2.17271
G1 X138.44 Y102.769 E.01834
M73 P7 R135
G1 X138.44 Y162.945 E2.17271
G1 X137.933 Y162.945 E.01834
G1 X137.933 Y102.769 E2.17271
G1 X137.425 Y102.769 E.01834
G1 X137.425 Y162.945 E2.17271
G1 X136.917 Y162.945 E.01834
G1 X136.917 Y102.769 E2.17271
G1 X136.409 Y102.769 E.01834
G1 X136.409 Y162.945 E2.17271
G1 X135.901 Y162.945 E.01834
G1 X135.901 Y102.769 E2.17271
G1 X135.393 Y102.769 E.01834
G1 X135.393 Y162.945 E2.17271
G1 X134.885 Y162.945 E.01834
G1 X134.885 Y102.769 E2.17271
G1 X134.378 Y102.769 E.01834
G1 X134.374 Y165.802 E2.27586
G1 X133.87 Y165.802 E.0182
M73 P7 R134
G1 X133.87 Y102.769 E2.27586
G1 X133.362 Y102.769 E.01834
G1 X133.362 Y165.802 E2.27586
G1 X132.854 Y165.802 E.01834
G1 X132.854 Y102.769 E2.27586
G1 X132.346 Y102.769 E.01834
G1 X132.346 Y165.802 E2.27586
G1 X131.838 Y165.802 E.01834
G1 X131.838 Y102.769 E2.27586
G1 X131.33 Y102.769 E.01834
G1 X131.33 Y165.802 E2.27586
G1 X130.823 Y165.802 E.01834
G1 X130.823 Y102.769 E2.27586
G1 X130.315 Y102.769 E.01834
G1 X130.315 Y160.587 E2.0876
G1 X129.807 Y160.587 E.01834
G1 X129.807 Y102.769 E2.0876
G1 X129.299 Y102.769 E.01834
G1 X129.299 Y160.587 E2.0876
G1 X128.791 Y160.587 E.01834
G1 X128.791 Y102.769 E2.0876
G1 X128.283 Y102.769 E.01834
G1 X128.283 Y160.587 E2.0876
G1 X127.775 Y160.587 E.01834
G1 X127.775 Y102.769 E2.0876
G1 X127.267 Y102.769 E.01834
G1 X127.267 Y160.587 E2.0876
G1 X126.76 Y160.587 E.01834
G1 X126.76 Y102.769 E2.0876
G1 X126.252 Y102.769 E.01834
G1 X126.252 Y160.587 E2.0876
G1 X125.744 Y160.587 E.01834
G1 X125.744 Y102.769 E2.0876
G1 X125.625 Y102.769 E.00428
G1 X125.625 Y111.34 E.30947
G1 X125.236 Y111.34 E.01406
G1 X125.236 Y160.587 E1.77813
G1 X124.728 Y160.587 E.01834
G1 X124.728 Y111.34 E1.77813
G1 X124.22 Y111.34 E.01834
G1 X124.22 Y160.587 E1.77813
G1 X123.712 Y160.587 E.01834
G1 X123.712 Y111.34 E1.77813
G1 X123.205 Y111.34 E.01834
G1 X123.205 Y160.587 E1.77813
G1 X122.697 Y160.587 E.01834
G1 X122.697 Y114.197 E1.67497
G1 X122.189 Y114.197 E.01834
G1 X122.189 Y160.587 E1.67497
G1 X121.681 Y160.587 E.01834
G1 X121.681 Y114.197 E1.67497
G1 X121.173 Y114.197 E.01834
G1 X121.173 Y160.587 E1.67497
G1 X120.665 Y160.587 E.01834
G1 X120.665 Y114.197 E1.67497
G1 X120.157 Y114.197 E.01834
G1 X120.157 Y160.587 E1.67497
G1 X119.649 Y160.587 E.01834
G1 X119.649 Y117.054 E1.57181
G1 X119.142 Y117.054 E.01834
G1 X119.142 Y160.587 E1.57181
G1 X118.634 Y160.587 E.01834
G1 X118.634 Y117.054 E1.57181
G1 X118.126 Y117.054 E.01834
G1 X118.126 Y160.587 E1.57181
G1 X117.618 Y160.587 E.01834
M73 P7 R133
G1 X117.618 Y117.054 E1.57181
G1 X117.11 Y117.054 E.01834
G1 X117.11 Y160.587 E1.57181
G1 X116.602 Y160.587 E.01834
G1 X116.602 Y119.911 E1.46865
G1 X116.094 Y119.911 E.01834
G1 X116.094 Y160.587 E1.46865
G1 X115.587 Y160.587 E.01834
G1 X115.587 Y119.911 E1.46865
G1 X115.079 Y119.911 E.01834
G1 X115.079 Y160.587 E1.46865
G1 X114.571 Y160.587 E.01834
M73 P8 R133
G1 X114.571 Y119.911 E1.46865
G1 X114.063 Y119.911 E.01834
G1 X114.063 Y160.587 E1.46865
G1 X113.555 Y160.587 E.01834
G1 X113.555 Y119.911 E1.46865
G1 X113.047 Y119.911 E.01834
G1 X113.047 Y160.587 E1.46865
G1 X112.539 Y160.587 E.01834
G1 X112.539 Y119.911 E1.46865
G1 X112.031 Y119.911 E.01834
G1 X112.031 Y160.587 E1.46865
G1 X111.524 Y160.587 E.01834
G1 X111.524 Y119.911 E1.46865
G1 X111.016 Y119.911 E.01834
G1 X111.016 Y160.587 E1.46865
G1 X110.508 Y160.587 E.01834
G1 X110.508 Y119.911 E1.46865
G1 X110 Y119.911 E.01834
G1 X110 Y160.587 E1.46865
G1 X109.492 Y160.587 E.01834
G1 X109.492 Y119.911 E1.46865
G1 X108.984 Y119.911 E.01834
G1 X108.984 Y160.587 E1.46865
G1 X108.476 Y160.587 E.01834
G1 X108.476 Y119.911 E1.46865
G1 X107.969 Y119.911 E.01834
G1 X107.969 Y160.587 E1.46865
G1 X107.461 Y160.587 E.01834
G1 X107.461 Y119.911 E1.46865
G1 X106.953 Y119.911 E.01834
G1 X106.953 Y160.587 E1.46865
G1 X106.445 Y160.587 E.01834
G1 X106.445 Y119.911 E1.46865
G1 X105.937 Y119.911 E.01834
G1 X105.937 Y160.587 E1.46865
G1 X105.429 Y160.587 E.01834
G1 X105.429 Y119.911 E1.46865
G1 X104.921 Y119.911 E.01834
G1 X104.921 Y160.587 E1.46865
G1 X104.413 Y160.587 E.01834
G1 X104.413 Y119.911 E1.46865
G1 X103.906 Y119.911 E.01834
G1 X103.906 Y160.587 E1.46865
G1 X103.398 Y160.587 E.01834
G1 X103.398 Y119.911 E1.46865
G1 X102.946 Y119.911 E.01632
G1 X102.946 Y117.054 E.10316
G1 X102.89 Y160.587 E1.57181
G1 X102.382 Y160.587 E.01834
G1 X102.382 Y117.054 E1.57181
G1 X101.874 Y117.054 E.01834
G1 X101.874 Y160.587 E1.57181
G1 X101.366 Y160.587 E.01834
G1 X101.366 Y117.054 E1.57181
G1 X100.858 Y117.054 E.01834
G1 X100.858 Y160.587 E1.57181
G1 X100.351 Y160.587 E.01834
G1 X100.351 Y117.054 E1.57181
G1 X100.089 Y117.054 E.00945
G1 X100.089 Y114.197 E.10316
G1 X99.843 Y114.197 E.00889
G1 X99.843 Y160.587 E1.67497
G1 X99.335 Y160.587 E.01834
G1 X99.335 Y114.197 E1.67497
G1 X98.827 Y114.197 E.01834
G1 X98.827 Y160.587 E1.67497
G1 X98.319 Y160.587 E.01834
G1 X98.319 Y114.197 E1.67497
G1 X97.811 Y114.197 E.01834
G1 X97.811 Y160.587 E1.67497
G1 X97.303 Y160.587 E.01834
M73 P8 R132
G1 X97.232 Y111.34 E1.77813
G1 X96.795 Y111.34 E.01575
G1 X96.795 Y160.587 E1.77813
G1 X96.288 Y160.587 E.01834
G1 X96.288 Y111.34 E1.77813
G1 X95.78 Y111.34 E.01834
G1 X95.78 Y160.587 E1.77813
G1 X95.272 Y160.587 E.01834
G1 X95.272 Y111.34 E1.77813
G1 X94.764 Y111.34 E.01834
G1 X94.764 Y160.587 E1.77813
G1 X94.256 Y160.587 E.01834
G1 X94.256 Y102.769 E2.0876
G1 X93.748 Y102.769 E.01834
G1 X93.748 Y160.587 E2.0876
G1 X93.24 Y160.587 E.01834
G1 X93.24 Y102.769 E2.0876
G1 X92.733 Y102.769 E.01834
G1 X92.733 Y160.587 E2.0876
G1 X92.225 Y160.587 E.01834
G1 X92.225 Y102.769 E2.0876
G1 X91.717 Y102.769 E.01834
G1 X91.717 Y160.587 E2.0876
G1 X91.209 Y160.587 E.01834
G1 X91.209 Y102.769 E2.0876
G1 X90.701 Y102.769 E.01834
G1 X90.701 Y160.587 E2.0876
G1 X90.193 Y160.587 E.01834
G1 X90.193 Y102.769 E2.0876
G1 X89.685 Y102.769 E.01834
G1 X89.685 Y160.793 E2.09503
G1 E-1.2 F2400
;WIPE_START
G1 F1800
G1 X89.685 Y158.793
;WIPE_END
G1 X93.443 Y159.46 Z.4 F9000
G1 X130.315 Y166.007 Z.4
M73 P9 R132
G1 Z.2
M73 P10 R130
G1 E1.2 F1800
G1 X130.315 Y165.125 E.03187
G1 X129.807 Y165.125 E.01834
G1 X129.807 Y165.802 E.02445
G1 X129.299 Y165.802 E.01834
G1 X129.299 Y165.125 E.02445
G1 X128.791 Y165.125 E.01834
G1 X128.791 Y165.802 E.02445
G1 X128.66 Y165.802 E.00475
G1 X128.66 Y168.659 E.10316
G1 X128.283 Y168.659 E.01359
G1 X128.283 Y165.125 E.1276
G1 X127.983 Y165.125 E.01086
G1 X127.983 Y167.982 E.10316
G1 X127.775 Y167.982 E.00748
G1 X127.775 Y168.659 E.02445
G1 X127.267 Y168.659 E.01834
G1 X127.267 Y167.982 E.02445
G1 X126.76 Y167.982 E.01834
G1 X126.76 Y168.659 E.02445
G1 X126.252 Y168.659 E.01834
G1 X126.252 Y167.982 E.02445
G1 X125.744 Y167.982 E.01834
G1 X125.744 Y168.659 E.02445
G1 X125.236 Y168.659 E.01834
G1 X125.236 Y167.982 E.02445
G1 X124.728 Y167.982 E.01834
G1 X124.728 Y168.659 E.02445
G1 X124.22 Y168.659 E.01834
G1 X124.22 Y167.982 E.02445
G1 X123.712 Y167.982 E.01834
G1 X123.712 Y168.659 E.02445
G1 X123.205 Y168.659 E.01834
G1 X123.205 Y167.982 E.02445
G1 X122.697 Y167.982 E.01834
G1 X122.697 Y168.659 E.02445
G1 X122.189 Y168.659 E.01834
G1 X122.189 Y167.876 E.02826
G1 E-1.2 F2400
;WIPE_START
G1 F1800
G1 X122.189 Y168.659
G1 X122.697 Y168.659
G1 X122.697 Y167.982
G1 X122.729 Y167.982
;WIPE_END
G1 X118.915 Y168.117 Z.4 F9000
G1 X97.811 Y168.864 Z.4
G1 Z.2
M73 P10 R129
G1 E1.2 F1800
G2 X97.716 Y167.982 I-1.008 J-.337 E.03307
G1 X97.303 Y167.982 E.01489
G1 X97.303 Y168.659 E.02445
G1 X96.795 Y168.659 E.01834
G1 X96.795 Y167.982 E.02445
G1 X96.288 Y167.982 E.01834
G1 X96.288 Y168.659 E.02445
G1 X95.78 Y168.659 E.01834
G1 X95.78 Y167.982 E.02445
G1 X95.272 Y167.982 E.01834
G1 X95.272 Y168.659 E.02445
G1 X94.764 Y168.659 E.01834
G1 X94.764 Y167.982 E.02445
G1 X94.256 Y167.982 E.01834
G1 X94.256 Y168.659 E.02445
G1 X93.748 Y168.659 E.01834
G1 X93.748 Y167.982 E.02445
G1 X93.24 Y167.982 E.01834
G1 X93.24 Y168.659 E.02445
G1 X92.733 Y168.659 E.01834
G1 X92.733 Y167.982 E.02445
G1 X92.225 Y167.982 E.01834
G1 X92.225 Y168.659 E.02445
G1 X91.717 Y168.659 E.01834
G1 X91.717 Y165.125 E.1276
G1 X91.209 Y165.125 E.01834
G1 X91.209 Y165.802 E.02445
