;TIME:6087.97
;Filament used:11.54119m
;Layer height:0.200
; HEADER_BLOCK_START
; generated by Creality_Print V6.3.0.3420 on 2026-03-04 at 10:24:16
; total layer number: 176
; filament_density: 1.24
; filament_diameter: 1.75
; max_z_height: 31.60
; creality_uuid: cbd0b425-dee8-423c-9f16-d7229686f6c1
; HEADER_BLOCK_END

; MINX = 53.00
; MINY = 38.85
; MINZ = 0.00
; MAXX = 167.00
; MAXY = 181.15
; MAXZ = 31.63

; multicolor_method = 0 
; THUMBNAIL_BLOCK_START

;
; THUMBNAIL_BLOCK_END

; THUMBNAIL_BLOCK_START

;
; THUMBNAIL_BLOCK_END

; external perimeters extrusion width = 0.42mm
; perimeters extrusion width = 0.45mm
; infill extrusion width = 0.45mm
; solid infill extrusion width = 0.42mm
; top infill extrusion width = 0.42mm
; support material extrusion width = 0.40mm
; first layer extrusion width = 0.50mm

; EXECUTABLE_BLOCK_START
M73 P0 R101
M201 X5000 Y5000 Z500 E5000
M203 X500 Y500 Z30 E100
M204 P5000 R2500 T5000 ; sets acceleration (P, T) and retract acceleration (R), mm/sec^2
M205 X10.00 Y10.00 Z0.40 E5.00 ; sets the jerk limits, mm/sec
; max_print_temp = 50,190
;TYPE:Custom
M220 S100 ;Reset Feedrate 
M221 S100 ;Reset Flowrate 
 
M140 S50 ;Set final bed temp 
G28 ;Home 
 
G92 E0 ;Reset Extruder 
G1 Z2.0 F3000 ;Move Z Axis up 
M104 S190 ;Set final nozzle temp 
G1 X-2.1 Y20 Z0.28 F5000.0 ;Move to start position 
M190 S50 ;Wait for bed temp to stabilize 
M109 S190 ;Wait for nozzle temp to stabilize 
G1 X-2.1 Y145.0 Z0.28 F1500.0 E15 ;Draw the first line 
G1 X-2.4 Y145.0 Z0.28 F5000.0 ;Move to side a little 
G1 X-2.4 Y20 Z0.28 F1500.0 E30 ;Draw the second line 
G92 E0  ;Reset Extruder 
G1 E-1.0000 F1800 ;Retract a bit 
G1 Z2.0 F3000 ;Move Z Axis up 
G1 E0.0000 F1800
G90
G21
M83 ; use relative distances for extrusion
;filament start gcode
G1 E-1.2 F2400
G1 Z.2 F9000
M106 S0
;LAYER_CHANGE
;Z:0.2
;HEIGHT:0.2
;BEFORE_LAYER_CHANGE
;0.2
G92 E0

;_SET_FAN_SPEED_CHANGING_LAYER
M204 P500
M205 X10 Y10
; printing object SM3_Cover_BottomFront.stl id:18446744073639060978 copy 0
M204 T500
G1 X63.358 Y102.357 Z.4 F9000
G1 Z.2
G1 E1.2 F1800
;TYPE:Support
;WIDTH:0.5
G1 X65.215 Y102.357 E.06706
G1 X65.215 Y99.5 E.10316
G1 X74.786 Y99.5 E.34557
G1 X74.786 Y102.357 E.10316
G1 X94.786 Y102.357 E.7221
G1 X94.786 Y110.929 E.30947
G1 X97.643 Y110.929 E.10316
G1 X97.643 Y113.786 E.10316
G1 X100.5 Y113.786 E.10316
G1 X100.5 Y116.643 E.10316
G1 X103.357 Y116.643 E.10316
G1 X103.357 Y119.5 E.10316
G1 X116.643 Y119.5 E.47969
G1 X116.643 Y116.643 E.10316
G1 X119.5 Y116.643 E.10316
G1 X119.5 Y113.786 E.10316
G1 X122.357 Y113.786 E.10316
G1 X122.357 Y110.929 E.10316
G1 X125.214 Y110.929 E.10316
G1 X125.214 Y102.357 E.30947
G1 X145.214 Y102.357 E.7221
G1 X145.214 Y99.5 E.10316
G1 X156.642 Y99.5 E.41263
G1 X156.642 Y36.645 E2.26947
G1 X163.356 Y36.645 E.24241
G1 X163.356 Y42.359 E.20632
G1 X166.213 Y42.359 E.10316
G1 X166.213 Y120.5 E2.82136
G1 X163.356 Y120.5 E.10316
G1 X163.356 Y129.071 E.30947
G1 X160.499 Y129.071 E.10316
G1 X160.499 Y131.928 E.10316
G1 X157.642 Y131.928 E.10316
G1 X157.642 Y160.499 E1.03158
G1 X140.499 Y160.499 E.61895
G1 X140.499 Y163.356 E.10316
G1 X127.571 Y163.356 E.46678
G1 X127.571 Y161.856 E.05415
G1 X130.428 Y161.856 E.10316
G1 X130.428 Y158.142 E.13411
G1 X89.572 Y158.142 E1.47516
G1 X89.572 Y161.856 E.13411
G1 X92.429 Y161.856 E.10316
G1 X92.429 Y163.356 E.05415
G1 X79.501 Y163.356 E.46678
G1 X79.501 Y160.499 E.10316
G1 X62.358 Y160.499 E.61895
G1 X62.358 Y131.928 E1.03158
G1 X59.501 Y131.928 E.10316
M73 P0 R100
G1 X59.501 Y129.071 E.10316
G1 X56.644 Y129.071 E.10316
G1 X56.644 Y120.5 E.30947
G1 X53.787 Y120.5 E.10316
G1 X53.787 Y42.359 E2.82136
G1 X56.644 Y42.359 E.10316
G1 X56.644 Y36.645 E.20632
G1 X63.358 Y36.645 E.24241
G1 X63.358 Y102.289 E2.37015
G1 E-1.2 F2400
;WIPE_START
G1 F1800
G1 X63.358 Y100.289
;WIPE_END
G1 X67.103 Y101.023 Z.4 F9000
G1 X165.357 Y120.294 Z.4
G1 Z.2
G1 E1.2 F1800
G1 X165.357 Y42.77 E2.79908
G1 X164.85 Y42.77 E.01834
G1 X164.85 Y120.088 E2.79165
G1 X164.342 Y120.088 E.01834
G1 X164.342 Y42.77 E2.79165
G1 X163.834 Y42.77 E.01834
G1 X163.834 Y120.088 E2.79165
G1 X163.326 Y120.088 E.01834
G1 X163.326 Y42.77 E2.79165
G1 X162.945 Y42.77 E.01377
G1 X162.945 Y37.056 E.20632
G1 X162.818 Y37.056 E.00457
G1 X162.818 Y128.66 E3.30744
G1 X162.31 Y128.66 E.01834
G1 X162.31 Y37.056 E3.30744
G1 X161.802 Y37.056 E.01834
G1 X161.802 Y128.66 E3.30744
G1 X161.294 Y128.66 E.01834
G1 X161.294 Y37.056 E3.30744
G1 X160.787 Y37.056 E.01834
G1 X160.787 Y128.66 E3.30744
G1 X160.279 Y128.66 E.01834
M73 P1 R100
G1 X160.279 Y37.056 E3.30744
G1 X159.771 Y37.056 E.01834
G1 X159.771 Y131.517 E3.4106
G1 X159.263 Y131.517 E.01834
G1 X159.263 Y37.056 E3.4106
G1 X158.755 Y37.056 E.01834
G1 X158.755 Y131.517 E3.4106
G1 X158.247 Y131.517 E.01834
G1 X158.247 Y37.056 E3.4106
G1 X157.739 Y37.056 E.01834
G1 X157.739 Y131.517 E3.4106
G1 X157.232 Y131.517 E.01834
G1 X157.232 Y37.056 E3.4106
G1 X157.053 Y37.056 E.00644
G1 X157.053 Y99.912 E2.26947
G1 X156.724 Y99.912 E.0119
G1 X156.724 Y160.087 E2.17271
G1 X156.216 Y160.087 E.01834
M73 P1 R99
G1 X156.216 Y99.912 E2.17271
G1 X155.708 Y99.912 E.01834
G1 X155.708 Y160.087 E2.17271
G1 X155.2 Y160.087 E.01834
G1 X155.2 Y99.912 E2.17271
G1 X154.692 Y99.912 E.01834
G1 X154.692 Y160.087 E2.17271
G1 X154.184 Y160.087 E.01834
G1 X154.184 Y99.912 E2.17271
G1 X153.676 Y99.912 E.01834
G1 X153.676 Y160.087 E2.17271
G1 X153.169 Y160.087 E.01834
G1 X153.169 Y99.912 E2.17271
G1 X152.661 Y99.912 E.01834
G1 X152.661 Y160.087 E2.17271
G1 X152.153 Y160.087 E.01834
G1 X152.153 Y99.912 E2.17271
G1 X151.645 Y99.912 E.01834
G1 X151.645 Y160.087 E2.17271
G1 X151.137 Y160.087 E.01834
G1 X151.137 Y99.912 E2.17271
G1 X150.629 Y99.912 E.01834
G1 X150.629 Y160.087 E2.17271
G1 X150.121 Y160.087 E.01834
G1 X150.121 Y99.912 E2.17271
G1 X149.614 Y99.912 E.01834
G1 X149.614 Y160.087 E2.17271
G1 X149.106 Y160.087 E.01834
G1 X149.106 Y99.912 E2.17271
G1 X148.598 Y99.912 E.01834
G1 X148.598 Y160.087 E2.17271
G1 X148.09 Y160.087 E.01834
M73 P2 R99
G1 X148.09 Y99.912 E2.17271
G1 X147.582 Y99.912 E.01834
G1 X147.582 Y160.087 E2.17271
G1 X147.074 Y160.087 E.01834
G1 X147.074 Y99.912 E2.17271
G1 X146.566 Y99.912 E.01834
G1 X146.566 Y160.087 E2.17271
G1 X146.058 Y160.087 E.01834
G1 X146.058 Y99.912 E2.17271
G1 X145.625 Y99.912 E.01565
G1 X145.551 Y102.769 E.10319
G1 X145.551 Y160.087 E2.06955
G1 X145.043 Y160.087 E.01834
G1 X145.043 Y102.769 E2.06955
G1 X144.535 Y102.769 E.01834
G1 X144.535 Y160.087 E2.06955
G1 X144.027 Y160.087 E.01834
G1 X144.027 Y102.769 E2.06955
G1 X143.519 Y102.769 E.01834
G1 X143.519 Y160.087 E2.06955
G1 X143.011 Y160.087 E.01834
G1 X143.011 Y102.769 E2.06955
G1 X142.503 Y102.769 E.01834
G1 X142.503 Y160.087 E2.06955
G1 X141.996 Y160.087 E.01834
G1 X141.996 Y102.769 E2.06955
G1 X141.488 Y102.769 E.01834
M73 P2 R98
G1 X141.488 Y160.087 E2.06955
G1 X140.98 Y160.087 E.01834
G1 X140.98 Y102.769 E2.06955
G1 X140.472 Y102.769 E.01834
G1 X140.472 Y160.087 E2.06955
G1 X140.088 Y160.087 E.01387
G1 X140.088 Y162.945 E.10316
G1 X139.964 Y162.945 E.00447
G1 X139.964 Y102.769 E2.17271
G1 X139.456 Y102.769 E.01834
G1 X139.456 Y162.945 E2.17271
G1 X138.948 Y162.945 E.01834
G1 X138.948 Y102.769 E2.17271
G1 X138.44 Y102.769 E.01834
G1 X138.44 Y162.945 E2.17271
G1 X137.933 Y162.945 E.01834
G1 X137.933 Y102.769 E2.17271
G1 X137.425 Y102.769 E.01834
G1 X137.425 Y162.945 E2.17271
G1 X136.917 Y162.945 E.01834
G1 X136.917 Y102.769 E2.17271
G1 X136.409 Y102.769 E.01834
G1 X136.409 Y162.945 E2.17271
G1 X135.901 Y162.945 E.01834
G1 X135.901 Y102.769 E2.17271
G1 X135.393 Y102.769 E.01834
G1 X135.393 Y162.945 E2.17271
G1 X134.885 Y162.945 E.01834
G1 X134.885 Y102.769 E2.17271
G1 X134.378 Y102.769 E.01834
G1 X134.378 Y162.945 E2.17271
G1 X133.87 Y162.945 E.01834
G1 X133.87 Y102.769 E2.17271
G1 X133.362 Y102.769 E.01834
M73 P3 R98
G1 X133.362 Y162.945 E2.17271
G1 X132.854 Y162.945 E.01834
G1 X132.854 Y102.769 E2.17271
G1 X132.346 Y102.769 E.01834
G1 X132.346 Y162.945 E2.17271
G1 X131.838 Y162.945 E.01834
G1 X131.838 Y102.769 E2.17271
G1 X131.33 Y102.769 E.01834
G1 X131.33 Y162.945 E2.17271
G1 X130.823 Y162.945 E.01834
G1 X130.823 Y102.769 E2.17271
G1 X130.315 Y102.769 E.01834
G1 X130.315 Y157.73 E1.98444
G1 X129.807 Y157.73 E.01834
G1 X129.807 Y102.769 E1.98444
G1 X129.299 Y102.769 E.01834
G1 X129.299 Y157.73 E1.98444
G1 X128.791 Y157.73 E.01834
G1 X128.791 Y102.769 E1.98444
G1 X128.283 Y102.769 E.01834
G1 X128.283 Y157.73 E1.98444
G1 X127.775 Y157.73 E.01834
G1 X127.775 Y102.769 E1.98444
G1 X127.267 Y102.769 E.01834
G1 X127.267 Y157.73 E1.98444
G1 X126.76 Y157.73 E.01834
G1 X126.76 Y102.769 E1.98444
G1 X126.252 Y102.769 E.01834
M73 P3 R97
G1 X126.252 Y157.73 E1.98444
G1 X125.744 Y157.73 E.01834
G1 X125.744 Y102.769 E1.98444
G1 X125.625 Y102.769 E.00428
G1 X125.625 Y111.34 E.30947
G1 X125.236 Y111.34 E.01406
G1 X125.236 Y157.73 E1.67497
G1 X124.728 Y157.73 E.01834
G1 X124.728 Y111.34 E1.67497
G1 X124.22 Y111.34 E.01834
G1 X124.22 Y157.73 E1.67497
G1 X123.712 Y157.73 E.01834
G1 X123.712 Y111.34 E1.67497
G1 X123.205 Y111.34 E.01834
G1 X123.205 Y157.73 E1.67497
G1 X122.697 Y157.73 E.01834
G1 X122.697 Y114.197 E1.57181
G1 X122.189 Y114.197 E.01834
G1 X122.189 Y157.73 E1.57181
G1 X121.681 Y157.73 E.01834
G1 X121.681 Y114.197 E1.57181
G1 X121.173 Y114.197 E.01834
G1 X121.173 Y157.73 E1.57181
G1 X120.665 Y157.73 E.01834
G1 X120.665 Y114.197 E1.57181
G1 X120.157 Y114.197 E.01834
G1 X120.157 Y157.73 E1.57181
G1 X119.649 Y157.73 E.01834
G1 X119.649 Y117.054 E1.46865
G1 X119.142 Y117.054 E.01834
G1 X119.142 Y157.73 E1.46865
G1 X118.634 Y157.73 E.01834
G1 X118.634 Y117.054 E1.46865
G1 X118.126 Y117.054 E.01834
G1 X118.126 Y157.73 E1.46865
G1 X117.618 Y157.73 E.01834
G1 X117.618 Y117.054 E1.46865
G1 X117.11 Y117.054 E.01834
G1 X117.11 Y157.73 E1.46865
G1 X116.602 Y157.73 E.01834
G1 X116.602 Y119.911 E1.3655
G1 X116.094 Y119.911 E.01834
G1 X116.094 Y157.73 E1.3655
G1 X115.587 Y157.73 E.01834
G1 X115.587 Y119.911 E1.3655
G1 X115.079 Y119.911 E.01834
M73 P4 R97
G1 X115.079 Y157.73 E1.3655
G1 X114.571 Y157.73 E.01834
G1 X114.571 Y119.911 E1.3655
G1 X114.063 Y119.911 E.01834
G1 X114.063 Y157.73 E1.3655
G1 X113.555 Y157.73 E.01834
G1 X113.555 Y119.911 E1.3655
G1 X113.047 Y119.911 E.01834
G1 X113.047 Y157.73 E1.3655
G1 X112.539 Y157.73 E.01834
G1 X112.539 Y119.911 E1.3655
G1 X112.031 Y119.911 E.01834
G1 X112.031 Y157.73 E1.3655
G1 X111.524 Y157.73 E.01834
G1 X111.524 Y119.911 E1.3655
G1 X111.016 Y119.911 E.01834
G1 X111.016 Y157.73 E1.3655
G1 X110.508 Y157.73 E.01834
G1 X110.508 Y119.911 E1.3655
G1 X110 Y119.911 E.01834
G1 X110 Y157.73 E1.3655
G1 X109.492 Y157.73 E.01834
G1 X109.492 Y119.911 E1.3655
G1 X108.984 Y119.911 E.01834
G1 X108.984 Y157.73 E1.3655
G1 X108.476 Y157.73 E.01834
G1 X108.476 Y119.911 E1.3655
G1 X107.969 Y119.911 E.01834
G1 X107.969 Y157.73 E1.3655
G1 X107.461 Y157.73 E.01834
G1 X107.461 Y119.911 E1.3655
G1 X106.953 Y119.911 E.01834
G1 X106.953 Y157.73 E1.3655
G1 X106.445 Y157.73 E.01834
G1 X106.445 Y119.911 E1.3655
G1 X105.937 Y119.911 E.01834
G1 X105.937 Y157.73 E1.3655
G1 X105.429 Y157.73 E.01834
M73 P4 R96
G1 X105.429 Y119.911 E1.3655
G1 X104.921 Y119.911 E.01834
G1 X104.921 Y157.73 E1.3655
G1 X104.413 Y157.73 E.01834
G1 X104.413 Y119.911 E1.3655
G1 X103.906 Y119.911 E.01834
G1 X103.906 Y157.73 E1.3655
G1 X103.398 Y157.73 E.01834
G1 X103.398 Y119.911 E1.3655
G1 X102.946 Y119.911 E.01632
G1 X102.946 Y117.054 E.10316
G1 X102.89 Y157.73 E1.46865
G1 X102.382 Y157.73 E.01834
G1 X102.382 Y117.054 E1.46865
G1 X101.874 Y117.054 E.01834
G1 X101.874 Y157.73 E1.46865
G1 X101.366 Y157.73 E.01834
G1 X101.366 Y117.054 E1.46865
G1 X100.858 Y117.054 E.01834
G1 X100.858 Y157.73 E1.46865
G1 X100.351 Y157.73 E.01834
G1 X100.351 Y117.054 E1.46865
G1 X100.089 Y117.054 E.00945
G1 X100.089 Y114.197 E.10316
G1 X99.843 Y114.197 E.00889
G1 X99.843 Y157.73 E1.57181
G1 X99.335 Y157.73 E.01834
G1 X99.335 Y114.197 E1.57181
G1 X98.827 Y114.197 E.01834
G1 X98.827 Y157.73 E1.57181
G1 X98.319 Y157.73 E.01834
G1 X98.319 Y114.197 E1.57181
G1 X97.811 Y114.197 E.01834
G1 X97.811 Y157.73 E1.57181
G1 X97.303 Y157.73 E.01834
G1 X97.232 Y111.34 E1.67497
G1 X96.795 Y111.34 E.01575
G1 X96.795 Y157.73 E1.67497
G1 X96.288 Y157.73 E.01834
G1 X96.288 Y111.34 E1.67497
G1 X95.78 Y111.34 E.01834
G1 X95.78 Y157.73 E1.67497
G1 X95.272 Y157.73 E.01834
G1 X95.272 Y111.34 E1.67497
G1 X94.764 Y111.34 E.01834
G1 X94.764 Y157.73 E1.67497
G1 X94.256 Y157.73 E.01834
G1 X94.256 Y102.769 E1.98444
G1 X93.748 Y102.769 E.01834
G1 X93.748 Y157.73 E1.98444
G1 X93.24 Y157.73 E.01834
M73 P5 R96
G1 X93.24 Y102.769 E1.98444
G1 X92.733 Y102.769 E.01834
G1 X92.733 Y157.73 E1.98444
G1 X92.225 Y157.73 E.01834
G1 X92.225 Y102.769 E1.98444
G1 X91.717 Y102.769 E.01834
G1 X91.717 Y157.73 E1.98444
G1 X91.209 Y157.73 E.01834
G1 X91.209 Y102.769 E1.98444
G1 X90.701 Y102.769 E.01834
G1 X90.701 Y157.73 E1.98444
G1 X90.193 Y157.73 E.01834
G1 X90.193 Y102.769 E1.98444
G1 X89.685 Y102.769 E.01834
G1 X89.685 Y157.936 E1.99187
G1 E-1.2 F2400
;WIPE_START
G1 F1800
G1 X89.685 Y155.936
;WIPE_END
G1 X93.443 Y156.603 Z.4 F9000
G1 X130.315 Y163.15 Z.4
G1 Z.2
G1 E1.2 F1800
G1 X130.315 Y162.267 E.03187
G1 X129.807 Y162.267 E.01834
G1 X129.807 Y162.945 E.02445
G1 X129.299 Y162.945 E.01834
G1 X129.299 Y162.267 E.02445
G1 X128.791 Y162.267 E.01834
G1 X128.791 Y162.945 E.02445
G1 X128.283 Y162.945 E.01834
G1 X128.283 Y162.062 E.03187
G1 E-1.2 F2400
;WIPE_START
G1 F1800
G1 X128.283 Y162.945
G1 X128.791 Y162.945
G1 X128.791 Y162.335
;WIPE_END
G1 X124.976 Y162.419 Z.4 F9000
G1 X91.717 Y163.15 Z.4
G1 Z.2
G1 E1.2 F1800
G1 X91.717 Y162.267 E.03187
G1 X91.209 Y162.267 E.01834
G1 X91.209 Y162.945 E.02445
G1 X90.701 Y162.945 E.01834
G1 X90.701 Y162.267 E.02445
G1 X90.193 Y162.267 E.01834
G1 X90.193 Y162.945 E.02445
G1 X89.685 Y162.945 E.01834
G1 X89.685 Y162.062 E.03187
G1 X89.177 Y163.15 F9000
G1 F1800
G1 X89.177 Y102.769 E2.18013
G1 X88.67 Y102.769 E.01834
G1 X88.67 Y162.945 E2.17271
G1 X88.162 Y162.945 E.01834
G1 X88.162 Y102.769 E2.17271
G1 X87.654 Y102.769 E.01834
G1 X87.654 Y162.945 E2.17271
G1 X87.146 Y162.945 E.01834
M73 P5 R95
G1 X87.146 Y102.769 E2.17271
G1 X86.638 Y102.769 E.01834
G1 X86.638 Y162.945 E2.17271
G1 X86.13 Y162.945 E.01834
G1 X86.13 Y102.769 E2.17271
G1 X85.622 Y102.769 E.01834
G1 X85.622 Y162.945 E2.17271
G1 X85.115 Y162.945 E.01834
G1 X85.115 Y102.769 E2.17271
G1 X84.607 Y102.769 E.01834
G1 X84.607 Y162.945 E2.17271
G1 X84.099 Y162.945 E.01834
G1 X84.099 Y102.769 E2.17271
G1 X83.591 Y102.769 E.01834
G1 X83.591 Y162.945 E2.17271
G1 X83.083 Y162.945 E.01834
G1 X83.083 Y102.769 E2.17271
G1 X82.575 Y102.769 E.01834
G1 X82.575 Y162.945 E2.17271
G1 X82.067 Y162.945 E.01834
G1 X82.067 Y102.769 E2.17271
G1 X81.56 Y102.769 E.01834
G1 X81.559 Y162.945 E2.17271
G1 X81.052 Y162.945 E.01834
G1 X81.052 Y102.769 E2.17271
G1 X80.544 Y102.769 E.01834
G1 X80.544 Y162.945 E2.17271
G1 X80.036 Y162.945 E.01834
G1 X80.036 Y102.769 E2.17271
G1 X79.528 Y102.769 E.01834
G1 X79.528 Y160.087 E2.06955
G1 X79.02 Y160.087 E.01834
G1 X79.02 Y102.769 E2.06955
G1 X78.512 Y102.769 E.01834
G1 X78.512 Y160.087 E2.06955
G1 X78.004 Y160.087 E.01834
M73 P6 R95
G1 X78.004 Y102.769 E2.06955
G1 X77.497 Y102.769 E.01834
G1 X77.497 Y160.087 E2.06955
G1 X76.989 Y160.087 E.01834
G1 X76.989 Y102.769 E2.06955
G1 X76.481 Y102.769 E.01834
G1 X76.481 Y160.087 E2.06955
G1 X75.973 Y160.087 E.01834
G1 X75.973 Y102.769 E2.06955
G1 X75.465 Y102.769 E.01834
G1 X75.465 Y160.087 E2.06955
G1 X74.957 Y160.087 E.01834
G1 X74.957 Y102.769 E2.06955
G1 X74.449 Y102.769 E.01834
G1 X74.449 Y160.087 E2.06955
G1 X73.942 Y160.087 E.01834
G1 X73.942 Y99.912 E2.17271
G1 X73.434 Y99.912 E.01834
G1 X73.434 Y160.087 E2.17271
G1 X72.926 Y160.087 E.01834
G1 X72.926 Y99.912 E2.17271
G1 X72.418 Y99.912 E.01834
M73 P6 R94
G1 X72.418 Y160.087 E2.17271
G1 X71.91 Y160.087 E.01834
G1 X71.91 Y99.912 E2.17271
G1 X71.402 Y99.912 E.01834
G1 X71.402 Y160.087 E2.17271
G1 X70.894 Y160.087 E.01834
G1 X70.894 Y99.912 E2.17271
G1 X70.386 Y99.912 E.01834
G1 X70.386 Y160.087 E2.17271
G1 X69.879 Y160.087 E.01834
G1 X69.879 Y99.912 E2.17271
G1 X69.371 Y99.912 E.01834
