;TIME:9500.47
;Filament used:19.21933m
;Layer height:0.200
; HEADER_BLOCK_START
; generated by Creality_Print V6.3.0.3420 on 2026-03-04 at 10:27:51
; total layer number: 291
; filament_density: 1.24
; filament_diameter: 1.75
; max_z_height: 44.40
; creality_uuid: 1e888f22-1399-48c2-a422-b96883a9aa9a
; HEADER_BLOCK_END

; MINX = 52.95
; MINY = 35.03
; MINZ = 0.00
; MAXX = 167.05
; MAXY = 184.97
; MAXZ = 44.35

; multicolor_method = 0 
; THUMBNAIL_BLOCK_START

;
; THUMBNAIL_BLOCK_END

; THUMBNAIL_BLOCK_START

;
; THUMBNAIL_BLOCK_END

; external perimeters extrusion width = 0.42mm
; perimeters extrusion width = 0.45mm
; infill extrusion width = 0.45mm
; solid infill extrusion width = 0.42mm
; top infill extrusion width = 0.42mm
; support material extrusion width = 0.40mm
; first layer extrusion width = 0.50mm

; EXECUTABLE_BLOCK_START
M73 P0 R158
M201 X5000 Y5000 Z500 E5000
M203 X500 Y500 Z30 E100
M204 P5000 R2500 T5000 ; sets acceleration (P, T) and retract acceleration (R), mm/sec^2
M205 X10.00 Y10.00 Z0.40 E5.00 ; sets the jerk limits, mm/sec
; max_print_temp = 50,190
;TYPE:Custom
M220 S100 ;Reset Feedrate 
M221 S100 ;Reset Flowrate 
 
M140 S50 ;Set final bed temp 
G28 ;Home 
 
G92 E0 ;Reset Extruder 
G1 Z2.0 F3000 ;Move Z Axis up 
M104 S190 ;Set final nozzle temp 
G1 X-2.1 Y20 Z0.28 F5000.0 ;Move to start position 
M190 S50 ;Wait for bed temp to stabilize 
M109 S190 ;Wait for nozzle temp to stabilize 
G1 X-2.1 Y145.0 Z0.28 F1500.0 E15 ;Draw the first line 
G1 X-2.4 Y145.0 Z0.28 F5000.0 ;Move to side a little 
G1 X-2.4 Y20 Z0.28 F1500.0 E30 ;Draw the second line 
G92 E0  ;Reset Extruder 
G1 E-1.0000 F1800 ;Retract a bit 
G1 Z2.0 F3000 ;Move Z Axis up 
G1 E0.0000 F1800
G90
G21
M83 ; use relative distances for extrusion
;filament start gcode
G1 E-1.2 F2400
G1 Z.2 F9000
M106 S0
;LAYER_CHANGE
;Z:0.2
;HEIGHT:0.2
;BEFORE_LAYER_CHANGE
;0.2
G92 E0

;_SET_FAN_SPEED_CHANGING_LAYER
M204 P500
M205 X10 Y10
; printing object SM3_Cover_TopFront.stl id:0 copy 0
M204 T500
G1 X57.644 Y77.644 Z.4 F9000
G1 Z.2
G1 E1.2 F1800
;TYPE:Support
;WIDTH:0.5
G1 X50.93 Y77.644 E.24241
G1 X50.93 Y62.358 E.55189
G1 X57.644 Y62.358 E.24241
G1 X57.644 Y77.575 E.54941
G1 X57.182 Y77.438 F9000
G1 F1800
G1 X57.182 Y62.77 E.52961
G1 X56.674 Y62.77 E.01834
G1 X56.674 Y77.232 E.52218
G1 X56.166 Y77.232 E.01834
G1 X56.166 Y62.77 E.52218
G1 X55.658 Y62.77 E.01834
G1 X55.658 Y77.232 E.52218
G1 X55.151 Y77.232 E.01834
G1 X55.151 Y62.77 E.52218
G1 X54.643 Y62.77 E.01834
G1 X54.643 Y77.232 E.52218
G1 X54.135 Y77.232 E.01834
G1 X54.135 Y62.77 E.52218
G1 X53.627 Y62.77 E.01834
G1 X53.627 Y77.232 E.52218
G1 X53.119 Y77.232 E.01834
G1 X53.119 Y62.77 E.52218
G1 X52.611 Y62.77 E.01834
G1 X52.611 Y77.232 E.52218
G1 X52.103 Y77.232 E.01834
G1 X52.103 Y62.77 E.52218
G1 X51.595 Y62.77 E.01834
G1 X51.595 Y77.438 E.52961
G1 E-1.2 F2400
;WIPE_START
G1 F1800
G1 X51.595 Y75.438
;WIPE_END
G1 X54.529 Y72.997 Z.4 F9000
G1 X94.786 Y39.502 Z.4
G1 Z.2
G1 E1.2 F1800
G1 X125.214 Y39.502 E1.09864
G1 X125.214 Y30.93 E.30947
G1 X140.499 Y30.93 E.55189
G1 X140.499 Y39.502 E.30947
M73 P0 R157
G1 X157.642 Y39.502 E.61895
G1 X157.642 Y42.359 E.10316
G1 X160.499 Y42.359 E.10316
G1 X160.499 Y166.213 E4.47188
G1 X149.071 Y166.213 E.41263
G1 X149.071 Y169.07 E.10316
G1 X143.356 Y169.07 E.20632
G1 X143.356 Y171.927 E.10316
G1 X135.903 Y171.927 E.26912
G3 X136.626 Y170.427 I9.096 J3.463 E.0602
G1 X139 Y170.427 E.08569
G1 X139 Y163.856 E.23727
G1 X118.143 Y163.856 E.75306
G1 X118.143 Y168.713 E.17537
G1 X114.901 Y168.713 E.11706
G1 X117.519 Y166.213 E.1307
G1 X113.786 Y166.213 E.13478
G1 X113.786 Y163.356 E.10316
G1 X110.929 Y163.356 E.10316
G1 X110.929 Y160.499 E.10316
G1 X109.071 Y160.499 E.06706
G1 X109.071 Y163.356 E.10316
G1 X106.214 Y163.356 E.10316
G1 X106.214 Y166.213 E.10316
G1 X102.431 Y166.213 E.13659
G1 X104.956 Y168.713 E.12828
G1 X101.857 Y168.713 E.11187
G1 X101.857 Y163.856 E.17537
G1 X81.001 Y163.856 E.75306
G1 X81.001 Y170.427 E.23727
G1 X83.289 Y170.427 E.08261
G3 X84.004 Y171.927 I-28.875 J14.697 E.06001
G1 X76.644 Y171.927 E.26576
G1 X76.644 Y169.07 E.10316
G1 X70.93 Y169.07 E.20632
G1 X70.93 Y166.213 E.10316
G1 X59.501 Y166.213 E.41263
G1 X59.501 Y160.499 E.20632
G1 X56.644 Y160.499 E.10316
G1 X56.644 Y122.357 E1.37715
G1 X62.358 Y122.357 E.20632
G1 X62.358 Y120.5 E.06706
G1 X56.644 Y120.5 E.20632
G1 X56.644 Y110.929 E.34557
G1 X59.501 Y110.929 E.10316
G1 X59.501 Y42.359 E2.47579
G1 X62.358 Y42.359 E.10316
G1 X62.358 Y39.502 E.10316
G1 X76.644 Y39.502 E.51579
G1 X76.644 Y30.93 E.30947
G1 X94.786 Y30.93 E.65505
G1 X94.786 Y39.433 E.307
G1 X159.771 Y166.007 F9000
G1 F1800
G1 X159.771 Y42.77 E4.4496
G1 X159.263 Y42.77 E.01834
G1 X159.263 Y165.802 E4.44218
G1 X158.755 Y165.802 E.01834
G1 X158.755 Y42.77 E4.44218
G1 X158.247 Y42.77 E.01834
G1 X158.247 Y165.802 E4.44218
G1 X157.739 Y165.802 E.01834
G1 X157.739 Y42.77 E4.44218
G1 X157.232 Y42.77 E.01834
G1 X157.232 Y165.802 E4.44218
G1 X156.724 Y165.802 E.01834
G1 X156.724 Y39.913 E4.54533
G1 X156.216 Y39.913 E.01834
G1 X156.216 Y165.802 E4.54533
G1 X155.708 Y165.802 E.01834
G1 X155.708 Y39.913 E4.54533
G1 X155.2 Y39.913 E.01834
G1 X155.2 Y165.802 E4.54533
G1 X154.692 Y165.802 E.01834
M73 P0 R156
G1 X154.692 Y39.913 E4.54533
G1 X154.184 Y39.913 E.01834
G1 X154.184 Y165.802 E4.54533
G1 X153.677 Y165.802 E.01834
G1 X153.677 Y39.913 E4.54533
G1 X153.169 Y39.913 E.01834
G1 X153.169 Y165.802 E4.54533
G1 X152.661 Y165.802 E.01834
M73 P1 R156
G1 X152.661 Y39.913 E4.54533
G1 X152.153 Y39.913 E.01834
G1 X152.153 Y165.802 E4.54533
G1 X151.645 Y165.802 E.01834
G1 X151.645 Y39.913 E4.54533
G1 X151.137 Y39.913 E.01834
G1 X151.137 Y165.802 E4.54533
G1 X150.629 Y165.802 E.01834
G1 X150.629 Y39.913 E4.54533
G1 X150.121 Y39.913 E.01834
G1 X150.121 Y165.802 E4.54533
G1 X149.614 Y165.802 E.01834
G1 X149.614 Y39.913 E4.54533
G1 X149.106 Y39.913 E.01834
G1 X149.106 Y165.802 E4.54533
G1 X148.659 Y165.802 E.01612
G1 X148.598 Y168.659 E.10318
G1 X148.598 Y39.913 E4.64849
G1 X148.09 Y39.913 E.01834
G1 X148.09 Y168.659 E4.64849
G1 X147.582 Y168.659 E.01834
M73 P1 R155
G1 X147.582 Y39.913 E4.64849
G1 X147.074 Y39.913 E.01834
G1 X147.074 Y168.659 E4.64849
G1 X146.566 Y168.659 E.01834
G1 X146.566 Y39.913 E4.64849
G1 X146.059 Y39.913 E.01834
G1 X146.059 Y168.659 E4.64849
G1 X145.551 Y168.659 E.01834
G1 X145.551 Y39.913 E4.64849
G1 X145.043 Y39.913 E.01834
G1 X145.043 Y168.659 E4.64849
G1 X144.535 Y168.659 E.01834
G1 X144.535 Y39.913 E4.64849
G1 X144.027 Y39.913 E.01834
G1 X144.027 Y168.659 E4.64849
G1 X143.519 Y168.659 E.01834
G1 X143.519 Y39.913 E4.64849
G1 X143.011 Y39.913 E.01834
G1 X143.011 Y168.659 E4.64849
G1 X142.945 Y171.516 E.10319
G1 X142.503 Y171.516 E.01594
G1 X142.504 Y39.913 E4.75165
G1 X141.996 Y39.913 E.01834
G1 X141.996 Y171.516 E4.75165
G1 X141.488 Y171.516 E.01834
M73 P2 R155
G1 X141.488 Y39.913 E4.75165
G1 X140.98 Y39.913 E.01834
G1 X140.98 Y171.516 E4.75165
G1 X140.472 Y171.516 E.01834
M73 P2 R154
G1 X140.472 Y39.913 E4.75165
G1 X140.088 Y39.913 E.01387
G1 X140.088 Y31.342 E.30947
G1 X139.964 Y31.342 E.00447
G1 X139.964 Y171.516 E5.06112
G1 X139.456 Y171.516 E.01834
G1 X139.456 Y31.342 E5.06112
G1 X138.948 Y31.342 E.01834
G1 X138.948 Y163.444 E4.7697
G1 X138.441 Y163.444 E.01834
G1 X138.441 Y31.342 E4.7697
G1 X137.933 Y31.342 E.01834
G1 X137.933 Y163.444 E4.7697
G1 X137.425 Y163.444 E.01834
G1 X137.425 Y31.342 E4.7697
G1 X136.917 Y31.342 E.01834
G1 X136.917 Y163.444 E4.7697
G1 X136.409 Y163.444 E.01834
G1 X136.409 Y31.342 E4.7697
G1 X135.901 Y31.342 E.01834
G1 X135.901 Y163.444 E4.7697
G1 X135.393 Y163.444 E.01834
G1 X135.393 Y31.342 E4.7697
G1 X134.886 Y31.342 E.01834
G1 X134.886 Y163.444 E4.7697
G1 X134.378 Y163.444 E.01834
G1 X134.378 Y31.342 E4.7697
G1 X133.87 Y31.342 E.01834
M73 P2 R153
G1 X133.87 Y163.444 E4.7697
G1 X133.362 Y163.444 E.01834
G1 X133.362 Y31.342 E4.7697
G1 X132.854 Y31.342 E.01834
G1 X132.854 Y163.444 E4.7697
G1 X132.346 Y163.444 E.01834
G1 X132.346 Y31.342 E4.7697
G1 X131.838 Y31.342 E.01834
G1 X131.838 Y163.444 E4.7697
G1 X131.33 Y163.444 E.01834
G1 X131.33 Y31.342 E4.7697
G1 X130.823 Y31.342 E.01834
M73 P3 R153
G1 X130.823 Y163.444 E4.7697
G1 X130.315 Y163.444 E.01834
G1 X130.315 Y31.342 E4.7697
G1 X129.807 Y31.342 E.01834
G1 X129.807 Y163.444 E4.7697
G1 X129.299 Y163.444 E.01834
G1 X129.299 Y31.342 E4.7697
G1 X128.791 Y31.342 E.01834
G1 X128.791 Y163.444 E4.7697
G1 X128.283 Y163.444 E.01834
G1 X128.283 Y31.342 E4.7697
G1 X127.775 Y31.342 E.01834
G1 X127.775 Y163.444 E4.7697
G1 X127.268 Y163.444 E.01834
G1 X127.268 Y31.342 E4.7697
G1 X126.76 Y31.342 E.01834
M73 P3 R152
G1 X126.76 Y163.444 E4.7697
G1 X126.252 Y163.444 E.01834
G1 X126.252 Y31.342 E4.7697
G1 X125.744 Y31.342 E.01834
G1 X125.744 Y163.444 E4.7697
G1 X125.236 Y163.444 E.01834
G1 X125.236 Y39.913 E4.46023
G1 X124.728 Y39.913 E.01834
G1 X124.728 Y163.444 E4.46023
G1 X124.22 Y163.444 E.01834
G1 X124.22 Y39.913 E4.46023
G1 X123.712 Y39.913 E.01834
G1 X123.712 Y163.444 E4.46023
G1 X123.205 Y163.444 E.01834
G1 X123.205 Y39.913 E4.46023
G1 X122.697 Y39.913 E.01834
G1 X122.697 Y163.444 E4.46023
G1 X122.189 Y163.444 E.01834
G1 X122.189 Y39.913 E4.46023
G1 X121.681 Y39.913 E.01834
G1 X121.681 Y163.444 E4.46023
G1 X121.173 Y163.444 E.01834
G1 X121.173 Y39.913 E4.46023
G1 X120.665 Y39.913 E.01834
G1 X120.665 Y163.444 E4.46023
G1 X120.157 Y163.444 E.01834
G1 X120.157 Y39.913 E4.46023
G1 X119.65 Y39.913 E.01834
M73 P4 R151
G1 X119.65 Y163.444 E4.46023
G1 X119.142 Y163.444 E.01834
G1 X119.142 Y39.913 E4.46023
G1 X118.634 Y39.913 E.01834
G1 X118.634 Y163.444 E4.46023
G1 X118.126 Y163.444 E.01834
G1 X118.126 Y39.913 E4.46023
G1 X117.618 Y39.913 E.01834
G1 X117.618 Y165.802 E4.54533
G1 X117.11 Y165.802 E.01834
G1 X117.11 Y39.913 E4.54533
G1 X116.602 Y39.913 E.01834
G1 X116.602 Y165.802 E4.54533
G1 X116.094 Y165.802 E.01834
G1 X116.094 Y39.913 E4.54533
G1 X115.587 Y39.913 E.01834
G1 X115.587 Y165.802 E4.54533
G1 X115.079 Y165.802 E.01834
G1 X115.079 Y39.913 E4.54533
G1 X114.571 Y39.913 E.01834
G1 X114.571 Y165.802 E4.54533
G1 X114.197 Y165.802 E.01349
G1 X114.197 Y162.945 E.10316
G1 X114.063 Y162.945 E.00484
G1 X114.063 Y39.913 E4.44218
G1 X113.555 Y39.913 E.01834
G1 X113.555 Y162.945 E4.44218
G1 X113.047 Y162.945 E.01834
G1 X113.047 Y39.913 E4.44218
G1 X112.539 Y39.913 E.01834
M73 P4 R150
G1 X112.539 Y162.945 E4.44218
G1 X112.032 Y162.945 E.01834
G1 X112.032 Y39.913 E4.44218
G1 X111.524 Y39.913 E.01834
G1 X111.524 Y162.945 E4.44218
G1 X111.34 Y162.945 E.00663
G1 X111.34 Y160.087 E.10316
G1 X111.016 Y160.087 E.01171
G1 X111.016 Y39.913 E4.33902
G1 X110.508 Y39.913 E.01834
G1 X110.508 Y160.087 E4.33902
G1 X110 Y160.087 E.01834
G1 X110 Y39.913 E4.33902
G1 X109.492 Y39.913 E.01834
G1 X109.492 Y160.087 E4.33902
G1 X108.984 Y160.087 E.01834
G1 X108.984 Y39.913 E4.33902
G1 X108.476 Y39.913 E.01834
M73 P5 R150
G1 X108.476 Y162.945 E4.44218
G1 X107.969 Y162.945 E.01834
G1 X107.969 Y39.913 E4.44218
G1 X107.461 Y39.913 E.01834
G1 X107.461 Y162.945 E4.44218
G1 X106.953 Y162.945 E.01834
G1 X106.953 Y39.913 E4.44218
G1 X106.445 Y39.913 E.01834
G1 X106.445 Y162.945 E4.44218
G1 X105.937 Y162.945 E.01834
G1 X105.937 Y39.913 E4.44218
G1 X105.429 Y39.913 E.01834
M73 P5 R149
G1 X105.429 Y165.802 E4.54533
G1 X104.921 Y165.802 E.01834
G1 X104.921 Y39.913 E4.54533
G1 X104.414 Y39.913 E.01834
G1 X104.414 Y165.802 E4.54533
G1 X103.906 Y165.802 E.01834
G1 X103.906 Y39.913 E4.54533
G1 X103.398 Y39.913 E.01834
G1 X103.398 Y165.802 E4.54533
G1 X102.89 Y165.802 E.01834
G1 X102.89 Y39.913 E4.54533
G1 X102.382 Y39.913 E.01834
G1 X102.382 Y165.802 E4.54533
G1 X102.269 Y165.802 E.00409
G1 X102.269 Y163.444 E.08511
G1 X101.874 Y163.444 E.01425
G1 X101.874 Y39.913 E4.46023
G1 X101.366 Y39.913 E.01834
G1 X101.366 Y163.444 E4.46023
G1 X100.858 Y163.444 E.01834
G1 X100.858 Y39.913 E4.46023
G1 X100.351 Y39.913 E.01834
G1 X100.351 Y163.444 E4.46023
G1 X99.843 Y163.444 E.01834
G1 X99.843 Y39.913 E4.46023
G1 X99.335 Y39.913 E.01834
G1 X99.335 Y163.444 E4.46023
G1 X98.827 Y163.444 E.01834
G1 X98.827 Y39.913 E4.46023
G1 X98.319 Y39.913 E.01834
G1 X98.319 Y163.444 E4.46023
G1 X97.811 Y163.444 E.01834
M73 P5 R148
G1 X97.811 Y39.913 E4.46023
G1 X97.303 Y39.913 E.01834
G1 X97.303 Y163.444 E4.46023
G1 X96.796 Y163.444 E.01834
M73 P6 R148
G1 X96.796 Y39.913 E4.46023
G1 X96.288 Y39.913 E.01834
G1 X96.288 Y163.444 E4.46023
G1 X95.78 Y163.444 E.01834
G1 X95.78 Y39.913 E4.46023
G1 X95.272 Y39.913 E.01834
G1 X95.272 Y163.444 E4.46023
G1 X94.764 Y163.444 E.01834
G1 X94.764 Y39.913 E4.46023
G1 X94.375 Y39.913 E.01406
G1 X94.375 Y31.342 E.30947
G1 X94.256 Y31.342 E.00428
G1 X94.256 Y163.444 E4.7697
G1 X93.748 Y163.444 E.01834
G1 X93.748 Y31.342 E4.7697
G1 X93.241 Y31.342 E.01834
G1 X93.24 Y163.444 E4.7697
G1 X92.733 Y163.444 E.01834
G1 X92.733 Y31.342 E4.7697
G1 X92.225 Y31.342 E.01834
G1 X92.225 Y163.444 E4.7697
G1 X91.717 Y163.444 E.01834
G1 X91.717 Y31.342 E4.7697
G1 X91.209 Y31.342 E.01834
G1 X91.209 Y163.444 E4.7697
G1 X90.701 Y163.444 E.01834
M73 P6 R147
G1 X90.701 Y31.342 E4.7697
G1 X90.193 Y31.342 E.01834
G1 X90.193 Y163.444 E4.7697
G1 X89.685 Y163.444 E.01834
G1 X89.685 Y31.342 E4.7697
G1 X89.178 Y31.342 E.01834
G1 X89.178 Y163.444 E4.7697
G1 X88.67 Y163.444 E.01834
G1 X88.67 Y31.342 E4.7697
G1 X88.162 Y31.342 E.01834
G1 X88.162 Y163.444 E4.7697
G1 X87.654 Y163.444 E.01834
G1 X87.654 Y31.342 E4.7697
G1 X87.146 Y31.342 E.01834
G1 X87.146 Y163.444 E4.7697
G1 X86.638 Y163.444 E.01834
G1 X86.638 Y31.342 E4.7697
G1 X86.13 Y31.342 E.01834
M73 P7 R147
G1 X86.13 Y163.444 E4.7697
G1 X85.622 Y163.444 E.01834
G1 X85.623 Y31.342 E4.7697
G1 X85.115 Y31.342 E.01834
G1 X85.115 Y163.444 E4.7697
G1 X84.607 Y163.444 E.01834
G1 X84.607 Y31.342 E4.7697
G1 X84.099 Y31.342 E.01834
M73 P7 R146
G1 X84.099 Y163.444 E4.7697
G1 X83.591 Y163.444 E.01834
G1 X83.591 Y31.342 E4.7697
G1 X83.083 Y31.342 E.01834
G1 X83.083 Y163.444 E4.7697
G1 X82.575 Y163.444 E.01834
G1 X82.575 Y31.342 E4.7697
G1 X82.067 Y31.342 E.01834
G1 X82.067 Y163.444 E4.7697
G1 X81.56 Y163.444 E.01834
G1 X81.56 Y31.342 E4.7697
G1 X81.052 Y31.342 E.01834
G1 X81.052 Y163.444 E4.7697
G1 X80.589 Y163.444 E.0167
G1 X80.589 Y170.839 E.26697
G1 X81.052 Y170.839 E.0167
G1 X81.052 Y171.516 E.02445
G1 X81.56 Y171.516 E.01834
G1 X81.56 Y170.839 E.02445
G1 X82.067 Y170.839 E.01834
G1 X82.067 Y171.516 E.02445
G1 X82.575 Y171.516 E.01834
G1 X82.575 Y170.839 E.02445
G1 X83.058 Y170.839 E.01743
G1 X83.083 Y171.721 E.03189
G1 E-1.2 F2400
;WIPE_START
G1 F1800
G1 X83.058 Y170.839
G1 X82.575 Y170.839
G1 X82.575 Y171.473
;WIPE_END
G1 X86.391 Y171.49 Z.4 F9000
G1 X138.948 Y171.721 Z.4
G1 Z.2
G1 E1.2 F1800
G1 X138.948 Y170.839 E.03187
G1 X138.441 Y170.839 E.01834
G1 X138.441 Y171.516 E.02445
G1 X137.933 Y171.516 E.01834
G1 X137.933 Y170.839 E.02445
G1 X137.425 Y170.839 E.01834
G1 X137.425 Y171.516 E.02445
G1 X136.917 Y171.516 E.01834
G1 X136.917 Y170.633 E.03187
G1 E-1.2 F2400
;WIPE_START
G1 F1800
G1 X136.917 Y171.516
G1 X137.425 Y171.516
G1 X137.425 Y170.906
;WIPE_END
G1 X133.609 Y170.961 Z.4 F9000
G1 X80.544 Y171.721 Z.4
G1 Z.2
G1 E1.2 F1800
G1 X80.544 Y31.342 E5.06855
G1 X80.036 Y31.342 E.01834
G1 X80.036 Y171.516 E5.06112
G1 X79.528 Y171.516 E.01834
G1 X79.528 Y31.342 E5.06112
G1 X79.02 Y31.342 E.01834
G1 X79.02 Y171.516 E5.06112
G1 X78.512 Y171.516 E.01834
G1 X78.512 Y31.342 E5.06112
G1 X78.005 Y31.342 E.01834
G1 X78.005 Y171.516 E5.06112
G1 X77.497 Y171.516 E.01834
M73 P7 R145
G1 X77.497 Y31.342 E5.06112
G1 X77.055 Y31.342 E.01594
G1 X76.989 Y39.913 E.30948
G1 X76.989 Y168.659 E4.64849
G1 X76.481 Y168.659 E.01834
G1 X76.481 Y39.913 E4.64849
G1 X75.973 Y39.913 E.01834
G1 X75.973 Y168.659 E4.64849
G1 X75.465 Y168.659 E.01834
M73 P8 R145
G1 X75.465 Y39.913 E4.64849
G1 X74.957 Y39.913 E.01834
G1 X74.957 Y168.659 E4.64849
G1 X74.449 Y168.659 E.01834
G1 X74.449 Y39.913 E4.64849
G1 X73.942 Y39.913 E.01834
G1 X73.942 Y168.659 E4.64849
G1 X73.434 Y168.659 E.01834
G1 X73.434 Y39.913 E4.64849
G1 X72.926 Y39.913 E.01834
G1 X72.926 Y168.659 E4.64849
G1 X72.418 Y168.659 E.01834
G1 X72.418 Y39.913 E4.64849
G1 X71.91 Y39.913 E.01834
G1 X71.91 Y168.659 E4.64849
G1 X71.402 Y168.659 E.01834
