;TIME:141938.80
;Filament used:17.54076m
;Layer height:0.200
; HEADER_BLOCK_START
; generated by Creality_Print V6.3.0.3420 on 2026-03-04 at 10:28:20
; total layer number: 191
; filament_density: 1.24
; filament_diameter: 1.75
; max_z_height: 32.00
; creality_uuid: 8091140a-3d3f-4bfa-9a4e-3edd48803de5
; HEADER_BLOCK_END

; MINX = 50.45
; MINY = 36.98
; MINZ = 0.00
; MAXX = 169.55
; MAXY = 183.02
; MAXZ = 32.09

; multicolor_method = 0 
; THUMBNAIL_BLOCK_START

;
; THUMBNAIL_BLOCK_END

; THUMBNAIL_BLOCK_START

;
; THUMBNAIL_BLOCK_END

; external perimeters extrusion width = 0.42mm
; perimeters extrusion width = 0.45mm
; infill extrusion width = 0.45mm
; solid infill extrusion width = 0.42mm
; top infill extrusion width = 0.42mm
; support material extrusion width = 0.40mm
; first layer extrusion width = 0.50mm

; EXECUTABLE_BLOCK_START
M73 P0 R2365
M201 X5000 Y5000 Z500 E5000
M203 X500 Y500 Z30 E100
M204 P5000 R2500 T5000 ; sets acceleration (P, T) and retract acceleration (R), mm/sec^2
M205 X10.00 Y10.00 Z0.40 E5.00 ; sets the jerk limits, mm/sec
; max_print_temp = 50,190
;TYPE:Custom
M220 S100 ;Reset Feedrate 
M221 S100 ;Reset Flowrate 
 
M140 S50 ;Set final bed temp 
G28 ;Home 
 
G92 E0 ;Reset Extruder 
G1 Z2.0 F3000 ;Move Z Axis up 
M104 S190 ;Set final nozzle temp 
G1 X-2.1 Y20 Z0.28 F5000.0 ;Move to start position 
M190 S50 ;Wait for bed temp to stabilize 
M109 S190 ;Wait for nozzle temp to stabilize 
G1 X-2.1 Y145.0 Z0.28 F1500.0 E15 ;Draw the first line 
G1 X-2.4 Y145.0 Z0.28 F5000.0 ;Move to side a little 
G1 X-2.4 Y20 Z0.28 F1500.0 E30 ;Draw the second line 
G92 E0  ;Reset Extruder 
G1 E-1.0000 F1800 ;Retract a bit 
G1 Z2.0 F3000 ;Move Z Axis up 
G1 E0.0000 F1800
G90
G21
M83 ; use relative distances for extrusion
;filament start gcode
G1 E-1.2 F2400
G1 Z.2 F9000
M106 S0
;LAYER_CHANGE
;Z:0.2
;HEIGHT:0.2
;BEFORE_LAYER_CHANGE
;0.2
G92 E0

;_SET_FAN_SPEED_CHANGING_LAYER
M204 P500
M205 X10 Y10
; printing object SM3_Cover_TopRear.stl id:2204197313152 copy 0
M204 T500
G1 X81.538 Y52.858 Z.4 F9000
G1 Z.2
G1 E1.2 F1800
;TYPE:Support interface
;WIDTH:0.4
G1 X81.429 Y52.858 E.00307
G1 X81.429 Y58.573 E.16118
G1 X81.716 Y58.573 E.0081
G1 X81.716 Y52.858 E.16118
G1 X82.489 Y52.858 E.02178
G1 X82.146 Y53.266 E.01503
G1 X82.35 Y53.703 E.0136
G1 X82.573 Y53.704 E.00631
G1 X82.573 Y58.573 E.13734
G1 X83.431 Y58.573 E.02418
G1 X83.431 Y53.704 E.13732
G1 X84.288 Y53.705 E.02418
G1 X84.288 Y58.573 E.13731
G1 X85.145 Y58.573 E.02418
G1 X85.145 Y53.705 E.1373
G1 X86.002 Y53.706 E.02418
G1 X86.002 Y58.573 E.13728
G1 X86.859 Y58.573 E.02418
G1 X86.859 Y53.706 E.13727
G1 X87.716 Y53.707 E.02418
G1 X87.716 Y58.573 E.13725
G1 X88.573 Y58.573 E.02418
G1 X88.573 Y53.707 E.13724
G1 X89.43 Y53.708 E.02418
G1 X89.43 Y58.573 E.13723
G1 X90.287 Y58.573 E.02418
G1 X90.287 Y53.708 E.13721
G1 X91.144 Y53.709 E.02418
G1 X91.144 Y58.573 E.1372
G1 X92.001 Y58.573 E.02418
G1 X92.001 Y53.709 E.13718
G1 X92.858 Y53.71 E.02418
G1 X92.858 Y58.573 E.13717
G1 X93.715 Y58.573 E.02418
G1 X93.715 Y53.71 E.13715
G1 X94.573 Y53.711 E.02418
G1 X94.573 Y58.573 E.13714
G1 X95.43 Y58.573 E.02418
G1 X95.43 Y53.711 E.13713
G1 X96.287 Y53.712 E.02418
G1 X96.287 Y58.573 E.13711
G1 X97.144 Y58.573 E.02418
G1 X97.144 Y53.712 E.1371
G1 X98.001 Y53.713 E.02418
G1 X98.001 Y58.573 E.13708
G1 X98.858 Y58.573 E.02418
G1 X98.858 Y53.713 E.13707
G1 X99.715 Y53.714 E.02418
G1 X99.715 Y58.573 E.13706
G1 X100.572 Y58.573 E.02418
G1 X100.572 Y53.714 E.13704
G1 X101.429 Y53.715 E.02418
G1 X101.429 Y58.573 E.13703
G1 X102.286 Y58.573 E.02418
G1 X102.286 Y53.715 E.13701
G1 X103.143 Y53.716 E.02418
G1 X103.143 Y58.573 E.137
G1 X104 Y58.573 E.02418
G1 X104 Y53.716 E.13699
G1 X104.858 Y53.717 E.02418
G1 X104.858 Y58.573 E.13697
G1 X105.715 Y58.573 E.02418
G1 X105.715 Y53.717 E.13696
G1 X106.572 Y53.718 E.02418
G1 X106.572 Y58.573 E.13694
G1 X107.429 Y58.573 E.02418
G1 X107.429 Y53.718 E.13693
G1 X108.286 Y53.719 E.02418
G1 X108.286 Y58.573 E.13692
G1 X109.143 Y58.573 E.02418
G1 X109.143 Y53.719 E.1369
G1 X110 Y53.72 E.02418
G1 X110 Y58.573 E.13689
G1 X110.857 Y58.573 E.02418
G1 X110.857 Y53.72 E.13687
G1 X111.714 Y53.721 E.02418
G1 X111.714 Y58.573 E.13686
G1 X112.571 Y58.573 E.02418
G1 X112.571 Y53.721 E.13684
G1 X113.428 Y53.722 E.02418
G1 X113.428 Y58.573 E.13683
G1 X114.285 Y58.573 E.02418
G1 X114.285 Y53.722 E.13682
G1 X115.142 Y53.723 E.02418
G1 X115.142 Y58.573 E.1368
G1 X116 Y58.573 E.02418
G1 X116 Y53.723 E.13679
G1 X116.857 Y53.724 E.02418
G1 X116.857 Y58.573 E.13677
G1 X117.714 Y58.573 E.02418
G1 X117.714 Y53.724 E.13676
G1 X118.571 Y53.725 E.02418
G1 X118.571 Y58.573 E.13675
G1 X119.428 Y58.573 E.02418
G1 X119.428 Y53.725 E.13673
G1 X120.285 Y53.726 E.02418
G1 X120.285 Y58.573 E.13672
G1 X121.142 Y58.573 E.02418
G1 X121.142 Y53.726 E.1367
G1 X121.999 Y53.727 E.02418
G1 X121.999 Y58.573 E.13669
G1 X122.856 Y58.573 E.02418
G1 X122.856 Y53.727 E.13668
G1 X123.713 Y53.728 E.02418
G1 X123.713 Y58.573 E.13666
G1 X124.57 Y58.573 E.02418
G1 X124.57 Y53.728 E.13665
G1 X125.427 Y53.729 E.02418
G1 X125.427 Y58.573 E.13663
G1 X126.284 Y58.573 E.02418
G1 X126.284 Y53.729 E.13662
G1 X127.142 Y53.73 E.02418
G1 X127.142 Y58.573 E.1366
G1 X127.999 Y58.573 E.02418
G1 X127.999 Y53.73 E.13659
G1 X128.856 Y53.731 E.02418
G1 X128.856 Y58.573 E.13658
G1 X129.713 Y58.573 E.02418
G1 X129.713 Y53.731 E.13656
G1 X130.57 Y53.732 E.02418
G1 X130.57 Y58.573 E.13655
G1 X131.427 Y58.573 E.02418
G1 X131.427 Y53.732 E.13653
G1 X132.284 Y53.733 E.02418
G1 X132.284 Y58.573 E.13652
G1 X133.141 Y58.573 E.02418
G1 X133.141 Y53.733 E.13651
G1 X133.998 Y53.734 E.02418
G1 X133.998 Y58.573 E.13649
G1 X134.855 Y58.573 E.02418
G1 X134.855 Y53.734 E.13648
G1 X135.712 Y53.735 E.02418
G1 X135.712 Y58.573 E.13646
G1 X136.569 Y58.573 E.02418
G1 X136.569 Y53.735 E.13645
G1 X137.427 Y53.736 E.02418
G1 X137.427 Y58.573 E.13644
G1 X138.284 Y58.573 E.02418
G1 X138.284 Y52.858 E.16118
G1 X138.571 Y52.858 E.0081
G1 X138.571 Y58.573 E.16118
G1 X138.462 Y58.573 E.00307
G1 E-1.2 F2400
;WIPE_START
G1 F1800
G1 X138.571 Y58.573
G1 X138.571 Y56.681
;WIPE_END
G1 X137.245 Y53.307 Z.4 F9000
G1 Z.2
G1 E1.2 F1800
;TYPE:Support
;WIDTH:0.5
G1 X136.999 Y53.307 E.00885
G1 X136.999 Y53.145 E.00585
G1 X137.201 Y53.254 E.00828
G1 E-1.2 F2400
;WIPE_START
G1 F1800
G1 X136.999 Y53.145
G1 X136.999 Y53.307
G1 X137.245 Y53.307
;WIPE_END
G1 X133.43 Y53.214 Z.4 F9000
G1 X83.001 Y51.992 Z.4
G1 Z.2
G1 E1.2 F1800
G1 X82.731 Y52.43 E.01856
G1 X81.001 Y52.43 E.06249
G1 X81.001 Y59.001 E.23727
G1 X138.999 Y59.001 E2.09411
G1 X138.999 Y52.43 E.23727
G1 X137.192 Y52.43 E.06526
G3 X136.999 Y50.93 I1.37 J-.938 E.05668
G1 X143.356 Y50.93 E.22952
G1 X143.356 Y53.787 E.10316
G1 X151.928 Y53.787 E.30947
G1 X151.928 Y56.644 E.10316
G1 X160.499 Y56.644 E.30947
G1 X160.499 Y177.641 E4.36872
G1 X148.071 Y177.641 E.44873
G1 X148.071 Y174.784 E.10316
G1 X123.357 Y174.784 E.89232
G1 X123.357 Y177.641 E.10316
G1 X116.643 Y177.641 E.24241
G1 X116.643 Y174.784 E.10316
G1 X103.357 Y174.784 E.47969
G1 X103.357 Y177.641 E.10316
G1 X96.643 Y177.641 E.24241
G1 X96.643 Y174.784 E.10316
G1 X71.929 Y174.784 E.89232
G1 X71.929 Y177.641 E.10316
M73 P0 R2364
G1 X59.501 Y177.641 E.44873
G1 X59.501 Y56.644 E4.36872
G1 X68.072 Y56.644 E.30947
G1 X68.072 Y53.787 E.10316
G1 X76.644 Y53.787 E.30947
G1 X76.644 Y50.93 E.10316
G1 X83.001 Y50.93 E.22952
G1 X83.001 Y51.923 E.03586
G1 E-1.2 F2400
;WIPE_START
G1 F1800
G1 X83.001 Y50.93
G1 X81.994 Y50.93
;WIPE_END
G1 X82.153 Y54.743 Z.4 F9000
G1 X86.215 Y151.928 Z.4
G1 Z.2
G1 E1.2 F1800
G1 X88.072 Y151.928 E.06706
G1 X88.072 Y154.785 E.10316
G1 X90.929 Y154.785 E.10316
G1 X90.929 Y156.642 E.06706
G1 X88.072 Y156.642 E.10316
G1 X88.072 Y159.499 E.10316
G1 X86.215 Y159.499 E.06706
G1 X86.215 Y156.642 E.10316
G1 X83.358 Y156.642 E.10316
G1 X83.358 Y154.785 E.06706
G1 X86.215 Y154.785 E.10316
G1 X86.215 Y151.996 E.10068
G1 X131.928 Y151.928 F9000
G1 F1800
G1 X133.785 Y151.928 E.06706
G1 X133.785 Y159.499 E.27337
G1 X131.928 Y159.499 E.06706
G1 X131.928 Y156.642 E.10316
G1 X129.071 Y156.642 E.10316
G1 X129.071 Y154.785 E.06706
G1 X131.928 Y154.785 E.10316
G1 X131.928 Y151.996 E.10068
G1 E-1.2 F2400
;WIPE_START
G1 F1800
G1 X131.928 Y153.996
;WIPE_END
G1 X134.847 Y156.454 Z.4 F9000
G1 X159.771 Y177.436 Z.4
G1 Z.2
G1 E1.2 F1800
G1 X159.771 Y57.055 E4.34644
G1 X159.263 Y57.055 E.01834
G1 X159.263 Y177.23 E4.33902
G1 X158.755 Y177.23 E.01834
G1 X158.755 Y57.055 E4.33902
G1 X158.247 Y57.055 E.01834
G1 X158.247 Y177.23 E4.33902
G1 X157.739 Y177.23 E.01834
G1 X157.739 Y57.055 E4.33902
G1 X157.232 Y57.055 E.01834
G1 X157.232 Y177.23 E4.33902
G1 X156.724 Y177.23 E.01834
G1 X156.724 Y57.055 E4.33902
G1 X156.216 Y57.055 E.01834
G1 X156.216 Y177.23 E4.33902
G1 X155.708 Y177.23 E.01834
G1 X155.708 Y57.055 E4.33902
G1 X155.2 Y57.055 E.01834
G1 X155.2 Y177.23 E4.33902
G1 X154.692 Y177.23 E.01834
G1 X154.692 Y57.055 E4.33902
G1 X154.184 Y57.055 E.01834
G1 X154.184 Y177.23 E4.33902
G1 X153.676 Y177.23 E.01834
G1 X153.676 Y57.055 E4.33902
G1 X153.169 Y57.055 E.01834
M73 P0 R2363
G1 X153.169 Y177.23 E4.33902
G1 X152.661 Y177.23 E.01834
G1 X152.661 Y57.055 E4.33902
G1 X152.153 Y57.055 E.01834
G1 X152.153 Y177.23 E4.33902
G1 X151.645 Y177.23 E.01834
G1 X151.645 Y57.055 E4.33902
G1 X151.516 Y57.055 E.00465
G1 X151.516 Y54.198 E.10316
G1 X151.137 Y54.198 E.01369
G1 X151.137 Y177.23 E4.44218
G1 X150.629 Y177.23 E.01834
G1 X150.629 Y54.198 E4.44218
G1 X150.121 Y54.198 E.01834
G1 X150.121 Y177.23 E4.44218
G1 X149.614 Y177.23 E.01834
G1 X149.614 Y54.198 E4.44218
G1 X149.106 Y54.198 E.01834
G1 X149.106 Y177.23 E4.44218
G1 X148.598 Y177.23 E.01834
G1 X148.598 Y54.198 E4.44218
G1 X148.09 Y54.198 E.01834
G1 X148.09 Y174.373 E4.33902
G1 X147.582 Y174.373 E.01834
G1 X147.582 Y54.198 E4.33902
G1 X147.074 Y54.198 E.01834
G1 X147.074 Y174.373 E4.33902
G1 X146.566 Y174.373 E.01834
G1 X146.566 Y54.198 E4.33902
G1 X146.058 Y54.198 E.01834
G1 X146.058 Y174.373 E4.33902
G1 X145.551 Y174.373 E.01834
M73 P0 R2362
G1 X145.551 Y54.198 E4.33902
G1 X145.043 Y54.198 E.01834
G1 X145.043 Y174.373 E4.33902
G1 X144.535 Y174.373 E.01834
G1 X144.535 Y54.198 E4.33902
G1 X144.027 Y54.198 E.01834
G1 X144.027 Y174.373 E4.33902
G1 X143.519 Y174.373 E.01834
G1 X143.519 Y54.198 E4.33902
G1 X143.011 Y54.198 E.01834
G1 X143.011 Y174.373 E4.33902
G1 X142.503 Y174.373 E.01834
G1 X142.503 Y51.341 E4.44218
G1 X141.996 Y51.341 E.01834
G1 X141.996 Y174.373 E4.44218
G1 X141.488 Y174.373 E.01834
G1 X141.488 Y51.341 E4.44218
G1 X140.98 Y51.341 E.01834
G1 X140.98 Y174.373 E4.44218
G1 X140.472 Y174.373 E.01834
G1 X140.472 Y51.341 E4.44218
G1 X139.964 Y51.341 E.01834
G1 X139.964 Y174.373 E4.44218
G1 X139.456 Y174.373 E.01834
G1 X139.456 Y51.341 E4.44218
G1 X138.948 Y51.341 E.01834
G1 X138.948 Y52.018 E.02445
G1 X138.44 Y52.018 E.01834
G1 X138.44 Y51.341 E.02445
G1 X137.933 Y51.341 E.01834
G1 X137.933 Y52.018 E.02445
G1 X137.425 Y52.018 E.01834
G1 X137.425 Y51.136 E.03187
G1 E-1.2 F2400
;WIPE_START
G1 F1800
G1 X137.425 Y52.018
G1 X137.933 Y52.018
G1 X137.933 Y51.409
;WIPE_END
G1 X137.964 Y55.225 Z.4 F9000
G1 X138.948 Y174.578 Z.4
G1 Z.2
G1 E1.2 F1800
G1 X138.948 Y59.413 E4.15818
G1 X138.44 Y59.413 E.01834
M73 P0 R2361
G1 X138.44 Y174.373 E4.15076
G1 X137.933 Y174.373 E.01834
G1 X137.933 Y59.413 E4.15076
G1 X137.425 Y59.413 E.01834
G1 X137.425 Y174.373 E4.15076
G1 X136.917 Y174.373 E.01834
G1 X136.917 Y59.413 E4.15076
G1 X136.409 Y59.413 E.01834
G1 X136.409 Y174.373 E4.15076
G1 X135.901 Y174.373 E.01834
G1 X135.901 Y59.413 E4.15076
G1 X135.393 Y59.413 E.01834
G1 X135.393 Y174.373 E4.15076
G1 X134.885 Y174.373 E.01834
G1 X134.885 Y59.413 E4.15076
G1 X134.378 Y59.413 E.01834
G1 X134.378 Y174.373 E4.15076
G1 X133.87 Y174.373 E.01834
G1 X133.87 Y159.91 E.52218
G1 X133.362 Y159.91 E.01834
G1 X133.362 Y174.373 E.52218
G1 X132.854 Y174.373 E.01834
G1 X132.854 Y159.91 E.52218
G1 X132.346 Y159.91 E.01834
G1 X132.346 Y174.373 E.52218
G1 X131.838 Y174.373 E.01834
G1 X131.838 Y159.91 E.52218
G1 X131.517 Y159.91 E.01161
G1 X131.517 Y157.053 E.10316
G1 X131.33 Y157.053 E.00673
G1 X131.33 Y174.373 E.62534
G1 X130.822 Y174.373 E.01834
G1 X130.822 Y157.053 E.62534
G1 X130.315 Y157.053 E.01834
G1 X130.315 Y174.373 E.62534
G1 X129.807 Y174.373 E.01834
G1 X129.807 Y157.053 E.62534
G1 X129.299 Y157.053 E.01834
G1 X129.299 Y174.373 E.62534
G1 X128.791 Y174.373 E.01834
G1 X128.791 Y59.413 E4.15076
G1 X129.299 Y59.413 E.01834
G1 X129.299 Y154.373 E3.42865
G1 X129.807 Y154.373 E.01834
G1 X129.807 Y59.413 E3.42865
G1 X130.315 Y59.413 E.01834
G1 X130.315 Y154.373 E3.42865
G1 X130.822 Y154.373 E.01834
G1 X130.822 Y59.413 E3.42865
G1 X131.33 Y59.413 E.01834
G1 X131.33 Y154.373 E3.42865
G1 X131.517 Y154.373 E.00673
M73 P0 R2360
G1 X131.517 Y151.516 E.10316
G1 X131.838 Y151.516 E.01161
G1 X131.838 Y59.413 E3.32549
G1 X132.346 Y59.413 E.01834
G1 X132.346 Y151.516 E3.32549
G1 X132.854 Y151.516 E.01834
G1 X132.854 Y59.413 E3.32549
G1 X133.362 Y59.413 E.01834
G1 X133.362 Y151.516 E3.32549
G1 X133.87 Y151.516 E.01834
G1 X133.87 Y59.207 E3.33292
G1 X128.283 Y174.578 F9000
G1 F1800
G1 X128.283 Y59.413 E4.15818
G1 X127.775 Y59.413 E.01834
G1 X127.775 Y174.373 E4.15076
G1 X127.267 Y174.373 E.01834
G1 X127.267 Y59.413 E4.15076
G1 X126.76 Y59.413 E.01834
G1 X126.76 Y174.373 E4.15076
G1 X126.252 Y174.373 E.01834
G1 X126.252 Y59.413 E4.15076
G1 X125.744 Y59.413 E.01834
G1 X125.744 Y174.373 E4.15076
G1 X125.236 Y174.373 E.01834
G1 X125.236 Y59.413 E4.15076
G1 X124.728 Y59.413 E.01834
G1 X124.728 Y174.373 E4.15076
G1 X124.22 Y174.373 E.01834
G1 X124.22 Y59.413 E4.15076
G1 X123.712 Y59.413 E.01834
G1 X123.712 Y174.373 E4.15076
G1 X123.204 Y174.373 E.01834
G1 X123.204 Y59.413 E4.15076
G1 X122.697 Y59.413 E.01834
M73 P0 R2359
G1 X122.697 Y177.23 E4.25391
G1 X122.189 Y177.23 E.01834
G1 X122.189 Y59.413 E4.25391
G1 X121.681 Y59.413 E.01834
G1 X121.681 Y177.23 E4.25391
G1 X121.173 Y177.23 E.01834
G1 X121.173 Y59.413 E4.25391
G1 X120.665 Y59.413 E.01834
G1 X120.665 Y177.23 E4.25391
G1 X120.157 Y177.23 E.01834
G1 X120.157 Y59.413 E4.25391
G1 X119.649 Y59.413 E.01834
G1 X119.649 Y177.23 E4.25391
G1 X119.142 Y177.23 E.01834
G1 X119.142 Y59.413 E4.25391
G1 X118.634 Y59.413 E.01834
G1 X118.634 Y177.23 E4.25391
G1 X118.126 Y177.23 E.01834
G1 X118.126 Y59.413 E4.25391
G1 X117.618 Y59.413 E.01834
G1 X117.618 Y177.23 E4.25391
G1 X117.11 Y177.23 E.01834
G1 X117.11 Y59.413 E4.25391
G1 X116.602 Y59.413 E.01834
G1 X116.602 Y174.373 E4.15076
G1 X116.094 Y174.373 E.01834
G1 X116.094 Y59.413 E4.15076
G1 X115.587 Y59.413 E.01834
G1 X115.586 Y174.373 E4.15076
G1 X115.079 Y174.373 E.01834
M73 P0 R2358
G1 X115.079 Y59.413 E4.15076
G1 X114.571 Y59.413 E.01834
G1 X114.571 Y174.373 E4.15076
G1 X114.063 Y174.373 E.01834
G1 X114.063 Y59.413 E4.15076
G1 X113.555 Y59.413 E.01834
G1 X113.555 Y174.373 E4.15076
G1 X113.047 Y174.373 E.01834
G1 X113.047 Y59.413 E4.15076
G1 X112.539 Y59.413 E.01834
G1 X112.539 Y174.373 E4.15076
G1 X112.031 Y174.373 E.01834
G1 X112.031 Y59.413 E4.15076
G1 X111.524 Y59.413 E.01834
G1 X111.524 Y174.373 E4.15076
G1 X111.016 Y174.373 E.01834
G1 X111.016 Y59.413 E4.15076
G1 X110.508 Y59.413 E.01834
G1 X110.508 Y174.373 E4.15076
G1 X110 Y174.373 E.01834
G1 X110 Y59.413 E4.15076
G1 X109.492 Y59.413 E.01834
G1 X109.492 Y174.373 E4.15076
G1 X108.984 Y174.373 E.01834
G1 X108.984 Y59.413 E4.15076
G1 X108.476 Y59.413 E.01834
G1 X108.476 Y174.373 E4.15076
G1 X107.969 Y174.373 E.01834
G1 X107.969 Y59.413 E4.15076
G1 X107.461 Y59.413 E.01834
G1 X107.461 Y174.373 E4.15076
G1 X106.953 Y174.373 E.01834
M73 P0 R2357
G1 X106.953 Y59.413 E4.15076
G1 X106.445 Y59.413 E.01834
G1 X106.445 Y174.373 E4.15076
G1 X105.937 Y174.373 E.01834
G1 X105.937 Y59.413 E4.15076
G1 X105.429 Y59.413 E.01834
G1 X105.429 Y174.373 E4.15076
G1 X104.921 Y174.373 E.01834
G1 X104.921 Y59.413 E4.15076
G1 X104.413 Y59.413 E.01834
G1 X104.413 Y174.373 E4.15076
G1 X103.906 Y174.373 E.01834
G1 X103.906 Y59.413 E4.15076
G1 X103.398 Y59.413 E.01834
G1 X103.398 Y174.373 E4.15076
G1 X102.946 Y174.373 E.01632
G1 X102.946 Y177.23 E.10316
G1 X102.89 Y59.413 E4.25391
G1 X102.382 Y59.413 E.01834
G1 X102.382 Y177.23 E4.25391
